
%
(Header)
(Generated by gcodetools from Inkscape.)
(Using default header. To add your own header create file "header" in the output dir.)
M3
(Header end.)
G21 (All units in mm)

(Start cutting path id: path760)
(Change tool to Default tool)

G00 Z1.000000
G00 X38.810280 Y64.263133

G01 Z-1.000000 F8000.0(Penetrate)
G01 X38.171214 Y62.661914 Z-1.000000 F8000.000000
G00 Z1.000000

(End cutting path id: path760)


(Start cutting path id: path754)
(Change tool to Default tool)

G00 Z1.000000
G00 X38.810280 Y64.263133

G01 Z-1.000000 F8000.0(Penetrate)
G02 X39.523022 Y64.509183 Z-1.000000 R32821.785966 F8000.000000
G03 X40.235748 Y64.755276 Z-1.000000 I-1694.002357 J4915.060724
G00 Z1.000000

(End cutting path id: path754)


(Start cutting path id: path752)
(Change tool to Default tool)

G00 Z1.000000
G00 X38.076800 Y66.332505

G01 Z-1.000000 F8000.0(Penetrate)
G03 X38.443574 Y65.297830 Z-1.000000 I30887.236898 J10965.802218 F8000.000000
G02 X38.810280 Y64.263133 Z-1.000000 I-6391.571319 J-2266.562956
G00 Z1.000000

(End cutting path id: path752)


(Start cutting path id: path778)
(Change tool to Default tool)

G00 Z1.000000
G00 X36.568039 Y63.581234

G01 Z-1.000000 F8000.0(Penetrate)
G03 X36.716735 Y64.472341 Z-1.000000 I-39640.925390 J6577.680015 F8000.000000
G03 X36.865384 Y65.363455 Z-1.000000 I-11174.149494 J1867.438331
G00 Z1.000000

(End cutting path id: path778)


(Start cutting path id: path294)
(Change tool to Default tool)

G00 Z1.000000
G00 X36.568039 Y63.581234

G01 Z-1.000000 F8000.0(Penetrate)
G02 X36.540088 Y62.640909 Z-1.000000 I-12817.861435 J383.544203 F8000.000000
G02 X36.512029 Y61.700586 Z-1.000000 I-5967.290118 J176.941369
G00 Z1.000000

(End cutting path id: path294)


(Start cutting path id: path384)
(Change tool to Default tool)

G00 Z1.000000
G00 X32.630270 Y59.857620

G01 Z-1.000000 F8000.0(Penetrate)
G01 X30.397398 Y60.032856 Z-1.000000 F8000.000000
G00 Z1.000000

(End cutting path id: path384)


(Start cutting path id: path13898)
(Change tool to Default tool)

G00 Z1.000000
G00 X32.321907 Y57.103775

G01 Z-1.000000 F8000.0(Penetrate)
G01 X32.630270 Y59.857620 Z-1.000000 F8000.000000
G00 Z1.000000

(End cutting path id: path13898)


(Start cutting path id: path13900)
(Change tool to Default tool)

G00 Z1.000000
G00 X30.397398 Y60.032856

G01 Z-1.000000 F8000.0(Penetrate)
G01 X32.321907 Y57.103775 Z-1.000000 F8000.000000
G00 Z1.000000

(End cutting path id: path13900)


(Start cutting path id: path13902)
(Change tool to Default tool)

G00 Z1.000000
G00 X30.562132 Y58.284921

G01 Z-1.000000 F8000.0(Penetrate)
G03 X30.479789 Y59.158891 Z-1.000000 R51190.071196 F8000.000000
G03 X30.397398 Y60.032856 Z-1.000000 I-9468.150897 J-886.477072
G00 Z1.000000

(End cutting path id: path13902)


(Start cutting path id: path844)
(Change tool to Default tool)

G00 Z1.000000
G00 X30.562132 Y58.284921

G01 Z-1.000000 F8000.0(Penetrate)
G01 X32.321907 Y57.103775 Z-1.000000 F8000.000000
G00 Z1.000000

(End cutting path id: path844)


(Start cutting path id: path106)
(Change tool to Default tool)

G00 Z1.000000
G00 X34.677913 Y61.110457

G01 Z-1.000000 F8000.0(Penetrate)
G01 X32.630270 Y59.857620 Z-1.000000 F8000.000000
G00 Z1.000000

(End cutting path id: path106)


(Start cutting path id: path13890)
(Change tool to Default tool)

G00 Z1.000000
G00 X36.512029 Y61.700586

G01 Z-1.000000 F8000.0(Penetrate)
G02 X35.594297 Y61.406622 Z-1.000000 I-59.764942 J185.002121 F8000.000000
G03 X34.677913 Y61.110457 Z-1.000000 I28.677716 J-90.299411
G00 Z1.000000

(End cutting path id: path13890)


(Start cutting path id: path13892)
(Change tool to Default tool)

G00 Z1.000000
G00 X33.771261 Y63.194315

G01 Z-1.000000 F8000.0(Penetrate)
G01 X36.512029 Y61.700586 Z-1.000000 F8000.000000
G00 Z1.000000

(End cutting path id: path13892)


(Start cutting path id: path108)
(Change tool to Default tool)

G00 Z1.000000
G00 X34.685434 Y61.115058

G01 Z-1.000000 F8000.0(Penetrate)
G01 X35.625759 Y59.327587 Z-1.000000 F8000.000000
G00 Z1.000000

(End cutting path id: path108)


(Start cutting path id: path842)
(Change tool to Default tool)

G00 Z1.000000
G00 X32.630270 Y59.857620

G01 Z-1.000000 F8000.0(Penetrate)
G01 X34.091978 Y58.052852 Z-1.000000 F8000.000000
G00 Z1.000000

(End cutting path id: path842)


(Start cutting path id: path382)
(Change tool to Default tool)

G00 Z1.000000
G00 X31.449021 Y61.437835

G01 Z-1.000000 F8000.0(Penetrate)
G01 X32.630270 Y59.857620 Z-1.000000 F8000.000000
G00 Z1.000000

(End cutting path id: path382)


(Start cutting path id: path13882)
(Change tool to Default tool)

G00 Z1.000000
G00 X34.685434 Y61.115058

G01 Z-1.000000 F8000.0(Penetrate)
G01 X31.449021 Y61.437835 Z-1.000000 F8000.000000
G00 Z1.000000

(End cutting path id: path13882)


(Start cutting path id: path830)
(Change tool to Default tool)

G00 Z1.000000
G00 X35.625759 Y59.327587

G01 Z-1.000000 F8000.0(Penetrate)
G01 X37.363397 Y59.340251 Z-1.000000 F8000.000000
G00 Z1.000000

(End cutting path id: path830)


(Start cutting path id: path13876)
(Change tool to Default tool)

G00 Z1.000000
G00 X36.357591 Y57.137340

G01 Z-1.000000 F8000.0(Penetrate)
G01 X35.625759 Y59.327587 Z-1.000000 F8000.000000
G00 Z1.000000

(End cutting path id: path13876)


(Start cutting path id: path13878)
(Change tool to Default tool)

G00 Z1.000000
G00 X34.091978 Y58.052852

G01 Z-1.000000 F8000.0(Penetrate)
G02 X35.224771 Y57.595060 Z-1.000000 R14649.224058 F8000.000000
G03 X36.357591 Y57.137340 Z-1.000000 I2199.770586 J5448.137021
G00 Z1.000000

(End cutting path id: path13878)


(Start cutting path id: path990)
(Change tool to Default tool)

G00 Z1.000000
G00 X32.241599 Y52.179658

G01 Z-1.000000 F8000.0(Penetrate)
G01 X32.419924 Y52.399270 Z-1.000000 F8000.000000
G00 Z1.000000

(End cutting path id: path990)


(Start cutting path id: path1216)
(Change tool to Default tool)

G00 Z1.000000
G00 X28.864235 Y49.109627

G01 Z-1.000000 F8000.0(Penetrate)
G01 X30.619583 Y51.523707 Z-1.000000 F8000.000000
G00 Z1.000000

(End cutting path id: path1216)


(Start cutting path id: path13868)
(Change tool to Default tool)

G00 Z1.000000
G00 X29.051003 Y52.580580

G01 Z-1.000000 F8000.0(Penetrate)
G03 X28.957568 Y50.845106 Z-1.000000 R10740.131816 F8000.000000
G02 X28.864235 Y49.109627 Z-1.000000 R38581.110600
G00 Z1.000000

(End cutting path id: path13868)


(Start cutting path id: path13870)
(Change tool to Default tool)

G00 Z1.000000
G00 X30.619583 Y51.523707

G01 Z-1.000000 F8000.0(Penetrate)
G02 X29.835269 Y52.052109 Z-1.000000 I9053.105741 J13453.863434 F8000.000000
G02 X29.051003 Y52.580580 Z-1.000000 I4404.042102 J6532.931012
G00 Z1.000000

(End cutting path id: path13870)


(Start cutting path id: path992)
(Change tool to Default tool)

G00 Z1.000000
G00 X30.326665 Y50.526137

G01 Z-1.000000 F8000.0(Penetrate)
G01 X30.619583 Y51.523707 Z-1.000000 F8000.000000
G00 Z1.000000

(End cutting path id: path992)


(Start cutting path id: path13862)
(Change tool to Default tool)

G00 Z1.000000
G00 X32.419924 Y52.399270

G01 Z-1.000000 F8000.0(Penetrate)
G03 X31.373338 Y51.462653 Z-1.000000 I11158.588893 J-12467.349618 F8000.000000
G02 X30.326665 Y50.526137 Z-1.000000 I-3439.078067 J3842.310798
G00 Z1.000000

(End cutting path id: path13862)


(Start cutting path id: path13864)
(Change tool to Default tool)

G00 Z1.000000
G00 X30.619583 Y51.523707

G01 Z-1.000000 F8000.0(Penetrate)
G02 X31.519741 Y51.961515 Z-1.000000 I8153.182925 J-16758.938735 F8000.000000
G02 X32.419924 Y52.399270 Z-1.000000 I6570.293338 J-13511.934979
G00 Z1.000000

(End cutting path id: path13864)


(Start cutting path id: path1008)
(Change tool to Default tool)

G00 Z1.000000
G00 X24.449662 Y53.268862

G01 Z-1.000000 F8000.0(Penetrate)
G01 X24.405390 Y52.821299 Z-1.000000 F8000.000000
G00 Z1.000000

(End cutting path id: path1008)


(Start cutting path id: path13848)
(Change tool to Default tool)

G00 Z1.000000
G00 X26.636717 Y53.411666

G01 Z-1.000000 F8000.0(Penetrate)
G03 X25.543187 Y53.340306 Z-1.000000 I891.979004 J-13575.831924 F8000.000000
G03 X24.449662 Y53.268862 Z-1.000000 I952.070508 J-14699.451794
G00 Z1.000000

(End cutting path id: path13848)


(Start cutting path id: path13850)
(Change tool to Default tool)

G00 Z1.000000
G00 X25.129912 Y54.541538

G01 Z-1.000000 F8000.0(Penetrate)
G01 X26.636717 Y53.411666 Z-1.000000 F8000.000000
G00 Z1.000000

(End cutting path id: path13850)


(Start cutting path id: path13852)
(Change tool to Default tool)

G00 Z1.000000
G00 X27.348061 Y55.725464

G01 Z-1.000000 F8000.0(Penetrate)
G03 X26.238960 Y55.133549 Z-1.000000 I7032.742569 J-13168.835649 F8000.000000
G03 X25.129912 Y54.541538 Z-1.000000 I6502.702359 J-12191.881337
G00 Z1.000000

(End cutting path id: path13852)


(Start cutting path id: path13854)
(Change tool to Default tool)

G00 Z1.000000
G00 X30.734897 Y55.786724

G01 Z-1.000000 F8000.0(Penetrate)
G01 X27.348061 Y55.725464 Z-1.000000 F8000.000000
G00 Z1.000000

(End cutting path id: path13854)


(Start cutting path id: path13856)
(Change tool to Default tool)

G00 Z1.000000
G00 X30.704179 Y54.068481

G01 Z-1.000000 F8000.0(Penetrate)
G01 X30.734897 Y55.786724 Z-1.000000 F8000.000000
G00 Z1.000000

(End cutting path id: path13856)


(Start cutting path id: path13858)
(Change tool to Default tool)

G00 Z1.000000
G00 X30.619583 Y51.523707

G01 Z-1.000000 F8000.0(Penetrate)
G02 X30.663694 Y52.796053 Z-1.000000 I272.522321 J-8.811130 F8000.000000
G03 X30.704179 Y54.068481 Z-1.000000 I-122.734525 J4.541980
G00 Z1.000000

(End cutting path id: path13858)


(Start cutting path id: path996)
(Change tool to Default tool)

G00 Z1.000000
G00 X29.051003 Y52.580580

G01 Z-1.000000 F8000.0(Penetrate)
G01 X26.636717 Y53.411666 Z-1.000000 F8000.000000
G00 Z1.000000

(End cutting path id: path996)


(Start cutting path id: path376)
(Change tool to Default tool)

G00 Z1.000000
G00 X30.701024 Y53.892175

G01 Z-1.000000 F8000.0(Penetrate)
G02 X29.024573 Y54.808874 Z-1.000000 R372448.664879 F8000.000000
G03 X27.348061 Y55.725464 Z-1.000000 I-6752.011525 J-12356.209242
G00 Z1.000000

(End cutting path id: path376)


(Start cutting path id: path808)
(Change tool to Default tool)

G00 Z1.000000
G00 X33.016675 Y54.276418

G01 Z-1.000000 F8000.0(Penetrate)
G01 X30.701024 Y53.892175 Z-1.000000 F8000.000000
G00 Z1.000000

(End cutting path id: path808)


(Start cutting path id: path10198)
(Change tool to Default tool)

G00 Z1.000000
G00 X34.285850 Y53.062737

G01 Z-1.000000 F8000.0(Penetrate)
G01 X33.016675 Y54.276418 Z-1.000000 F8000.000000
G00 Z1.000000

(End cutting path id: path10198)


(Start cutting path id: path10200)
(Change tool to Default tool)

G00 Z1.000000
G00 X32.419924 Y52.399270

G01 Z-1.000000 F8000.0(Penetrate)
G02 X33.352875 Y52.731036 Z-1.000000 I5534.251572 J-15552.790908 F8000.000000
G02 X34.285850 Y53.062737 Z-1.000000 I4066.196770 J-11440.067546
G00 Z1.000000

(End cutting path id: path10200)


(Start cutting path id: path806)
(Change tool to Default tool)

G00 Z1.000000
G00 X32.419924 Y52.399270

G01 Z-1.000000 F8000.0(Penetrate)
G01 X33.016675 Y54.276418 Z-1.000000 F8000.000000
G00 Z1.000000

(End cutting path id: path806)


(Start cutting path id: path810)
(Change tool to Default tool)

G00 Z1.000000
G00 X30.701024 Y53.892175

G01 Z-1.000000 F8000.0(Penetrate)
G03 X31.560498 Y53.145751 Z-1.000000 I6944.166882 J8004.264687 F8000.000000
G02 X32.419924 Y52.399270 Z-1.000000 I-3132.408484 J-3609.097689
G00 Z1.000000

(End cutting path id: path810)


(Start cutting path id: path380)
(Change tool to Default tool)

G00 Z1.000000
G00 X29.051003 Y52.580580

G01 Z-1.000000 F8000.0(Penetrate)
G02 X29.875990 Y53.236407 Z-1.000000 R20187.641910 F8000.000000
G02 X30.701024 Y53.892175 Z-1.000000 I7343.707754 J-9222.576566
G00 Z1.000000

(End cutting path id: path380)


(Start cutting path id: path378)
(Change tool to Default tool)

G00 Z1.000000
G00 X27.348061 Y55.725464

G01 Z-1.000000 F8000.0(Penetrate)
G01 X29.051003 Y52.580580 Z-1.000000 F8000.000000
G00 Z1.000000

(End cutting path id: path378)


(Start cutting path id: path456)
(Change tool to Default tool)

G00 Z1.000000
G00 X26.149824 Y56.212768

G01 Z-1.000000 F8000.0(Penetrate)
G03 X26.748956 Y55.969150 Z-1.000000 I1898.517385 J4665.911422 F8000.000000
G02 X27.348061 Y55.725464 Z-1.000000 I-681.558018 J-1676.178181
G00 Z1.000000

(End cutting path id: path456)


(Start cutting path id: path738)
(Change tool to Default tool)

G00 Z1.000000
G00 X19.519573 Y63.606562

G01 Z-1.000000 F8000.0(Penetrate)
G01 X19.409922 Y63.613464 Z-1.000000 F8000.000000
G00 Z1.000000

(End cutting path id: path738)


(Start cutting path id: path13824)
(Change tool to Default tool)

G00 Z1.000000
G00 X20.844244 Y62.907368

G01 Z-1.000000 F8000.0(Penetrate)
G01 X19.519573 Y63.606562 Z-1.000000 F8000.000000
G00 Z1.000000

(End cutting path id: path13824)


(Start cutting path id: path404)
(Change tool to Default tool)

G00 Z1.000000
G00 X20.791014 Y61.074698

G01 Z-1.000000 F8000.0(Penetrate)
G01 X19.694810 Y61.123398 Z-1.000000 F8000.000000
G00 Z1.000000

(End cutting path id: path404)


(Start cutting path id: path348)
(Change tool to Default tool)

G00 Z1.000000
G00 X20.844244 Y62.907368

G01 Z-1.000000 F8000.0(Penetrate)
G01 X21.577209 Y60.959075 Z-1.000000 F8000.000000
G00 Z1.000000

(End cutting path id: path348)


(Start cutting path id: path838)
(Change tool to Default tool)

G00 Z1.000000
G00 X21.577209 Y60.959075

G01 Z-1.000000 F8000.0(Penetrate)
G03 X20.284691 Y61.979746 Z-1.000000 I-5106.674842 J-6468.185496 F8000.000000
G02 X18.992115 Y63.000340 Z-1.000000 I12329.137370 J15631.982572
G00 Z1.000000

(End cutting path id: path838)


(Start cutting path id: path13816)
(Change tool to Default tool)

G00 Z1.000000
G00 X20.791014 Y61.074698

G01 Z-1.000000 F8000.0(Penetrate)
G01 X21.577209 Y60.959075 Z-1.000000 F8000.000000
G00 Z1.000000

(End cutting path id: path13816)


(Start cutting path id: path300)
(Change tool to Default tool)

G00 Z1.000000
G00 X20.791323 Y57.535997

G01 Z-1.000000 F8000.0(Penetrate)
G01 X17.982396 Y57.762404 Z-1.000000 F8000.000000
G00 Z1.000000

(End cutting path id: path300)


(Start cutting path id: path13812)
(Change tool to Default tool)

G00 Z1.000000
G00 X18.916749 Y58.860565

G01 Z-1.000000 F8000.0(Penetrate)
G01 X20.791323 Y57.535997 Z-1.000000 F8000.000000
G00 Z1.000000

(End cutting path id: path13812)


(Start cutting path id: path904)
(Change tool to Default tool)

G00 Z1.000000
G00 X17.467086 Y59.761456

G01 Z-1.000000 F8000.0(Penetrate)
G01 X19.454606 Y60.195428 Z-1.000000 F8000.000000
G00 Z1.000000

(End cutting path id: path904)


(Start cutting path id: path13808)
(Change tool to Default tool)

G00 Z1.000000
G00 X18.916749 Y58.860565

G01 Z-1.000000 F8000.0(Penetrate)
G01 X17.467086 Y59.761456 Z-1.000000 F8000.000000
G00 Z1.000000

(End cutting path id: path13808)


(Start cutting path id: path768)
(Change tool to Default tool)

G00 Z1.000000
G00 X16.564033 Y57.810486

G01 Z-1.000000 F8000.0(Penetrate)
G02 X17.015519 Y58.785990 Z-1.000000 I16790.514032 J-7751.794542 F8000.000000
G02 X17.467086 Y59.761456 Z-1.000000 I8866.968047 J-4109.354415
G00 Z1.000000

(End cutting path id: path768)


(Start cutting path id: path13804)
(Change tool to Default tool)

G00 Z1.000000
G00 X18.916749 Y58.860565

G01 Z-1.000000 F8000.0(Penetrate)
G03 X17.740406 Y58.335491 Z-1.000000 I3389.505533 J-7606.967798 F8000.000000
G02 X16.564033 Y57.810486 Z-1.000000 I-1933.404192 J4334.393253
G00 Z1.000000

(End cutting path id: path13804)


(Start cutting path id: path766)
(Change tool to Default tool)

G00 Z1.000000
G00 X17.540702 Y55.768706

G01 Z-1.000000 F8000.0(Penetrate)
G01 X17.193524 Y53.644970 Z-1.000000 F8000.000000
G00 Z1.000000

(End cutting path id: path766)


(Start cutting path id: path13796)
(Change tool to Default tool)

G00 Z1.000000
G00 X16.705395 Y56.062860

G01 Z-1.000000 F8000.0(Penetrate)
G01 X17.540702 Y55.768706 Z-1.000000 F8000.000000
G00 Z1.000000

(End cutting path id: path13796)


(Start cutting path id: path13798)
(Change tool to Default tool)

G00 Z1.000000
G00 X17.982396 Y57.762404

G01 Z-1.000000 F8000.0(Penetrate)
G03 X17.343918 Y56.912614 Z-1.000000 I8940.612128 J-6729.431031 F8000.000000
G02 X16.705395 Y56.062860 Z-1.000000 I-4187.782004 J3148.611202
G00 Z1.000000

(End cutting path id: path13798)


(Start cutting path id: path13800)
(Change tool to Default tool)

G00 Z1.000000
G00 X16.564033 Y57.810486

G01 Z-1.000000 F8000.0(Penetrate)
G01 X17.982396 Y57.762404 Z-1.000000 F8000.000000
G00 Z1.000000

(End cutting path id: path13800)


(Start cutting path id: path426)
(Change tool to Default tool)

G00 Z1.000000
G00 X18.916749 Y58.860565

G01 Z-1.000000 F8000.0(Penetrate)
G01 X17.982396 Y57.762404 Z-1.000000 F8000.000000
G00 Z1.000000

(End cutting path id: path426)


(Start cutting path id: path302)
(Change tool to Default tool)

G00 Z1.000000
G00 X17.982396 Y57.762404

G01 Z-1.000000 F8000.0(Penetrate)
G03 X19.631647 Y56.690063 Z-1.000000 I7315.183668 J11248.613222 F8000.000000
G03 X21.280996 Y55.617871 Z-1.000000 I30741.748911 J47292.860652
G00 Z1.000000

(End cutting path id: path302)


(Start cutting path id: path420)
(Change tool to Default tool)

G00 Z1.000000
G00 X17.982396 Y57.762404

G01 Z-1.000000 F8000.0(Penetrate)
G01 X17.540702 Y55.768706 Z-1.000000 F8000.000000
G00 Z1.000000

(End cutting path id: path420)


(Start cutting path id: path1178)
(Change tool to Default tool)

G00 Z1.000000
G00 X21.215617 Y53.603272

G01 Z-1.000000 F8000.0(Penetrate)
G02 X19.379576 Y54.688390 Z-1.000000 I2252.516768 J3813.395686 F8000.000000
G03 X17.540702 Y55.768706 Z-1.000000 I-190.098515 J-321.473552
G00 Z1.000000

(End cutting path id: path1178)


(Start cutting path id: path900)
(Change tool to Default tool)

G00 Z1.000000
G00 X22.553741 Y53.394780

G01 Z-1.000000 F8000.0(Penetrate)
G01 X24.449662 Y53.268862 Z-1.000000 F8000.000000
G00 Z1.000000

(End cutting path id: path900)


(Start cutting path id: path13784)
(Change tool to Default tool)

G00 Z1.000000
G00 X20.813871 Y53.599360

G01 Z-1.000000 F8000.0(Penetrate)
G02 X21.683673 Y53.495299 Z-1.000000 I-14.463496 J-124.581563 F8000.000000
G03 X22.553741 Y53.394780 Z-1.000000 I7.097354 J57.617151
G00 Z1.000000

(End cutting path id: path13784)


(Start cutting path id: path1104)
(Change tool to Default tool)

G00 Z1.000000
G00 X18.805141 Y55.027813

G01 Z-1.000000 F8000.0(Penetrate)
G01 X20.813871 Y53.599360 Z-1.000000 F8000.000000
G00 Z1.000000

(End cutting path id: path1104)


(Start cutting path id: path728)
(Change tool to Default tool)

G00 Z1.000000
G00 X18.805141 Y55.027813

G01 Z-1.000000 F8000.0(Penetrate)
G01 X17.193524 Y53.644970 Z-1.000000 F8000.000000
G00 Z1.000000

(End cutting path id: path728)


(Start cutting path id: path1180)
(Change tool to Default tool)

G00 Z1.000000
G00 X16.797646 Y53.226133

G01 Z-1.000000 F8000.0(Penetrate)
G02 X16.995609 Y53.435529 Z-1.000000 I940.702503 J-889.097061 F8000.000000
G03 X17.193524 Y53.644970 Z-1.000000 I-308.991060 J292.180211
G00 Z1.000000

(End cutting path id: path1180)


(Start cutting path id: path13772)
(Change tool to Default tool)

G00 Z1.000000
G00 X18.974714 Y53.757505

G01 Z-1.000000 F8000.0(Penetrate)
G01 X16.797646 Y53.226133 Z-1.000000 F8000.000000
G00 Z1.000000

(End cutting path id: path13772)


(Start cutting path id: path13774)
(Change tool to Default tool)

G00 Z1.000000
G00 X20.796302 Y53.600872

G01 Z-1.000000 F8000.0(Penetrate)
G03 X19.885511 Y53.679212 Z-1.000000 R31329.308428 F8000.000000
G03 X18.974714 Y53.757505 Z-1.000000 I-1024.132236 J-11997.555358
G00 Z1.000000

(End cutting path id: path13774)


(Start cutting path id: path13776)
(Change tool to Default tool)

G00 Z1.000000
G00 X23.013487 Y53.621085

G01 Z-1.000000 F8000.0(Penetrate)
G03 X21.904809 Y53.609907 Z-1.000000 I2.594534 J-312.346513 F8000.000000
G02 X20.796302 Y53.600872 Z-1.000000 I-1.773743 J149.600347
G00 Z1.000000

(End cutting path id: path13776)


(Start cutting path id: path1020)
(Change tool to Default tool)

G00 Z1.000000
G00 X26.311984 Y51.757114

G01 Z-1.000000 F8000.0(Penetrate)
G01 X23.487819 Y52.350776 Z-1.000000 F8000.000000
G00 Z1.000000

(End cutting path id: path1020)


(Start cutting path id: path13768)
(Change tool to Default tool)

G00 Z1.000000
G00 X24.405390 Y52.821299

G01 Z-1.000000 F8000.0(Penetrate)
G01 X26.311984 Y51.757114 Z-1.000000 F8000.000000
G00 Z1.000000

(End cutting path id: path13768)


(Start cutting path id: path460)
(Change tool to Default tool)

G00 Z1.000000
G00 X26.149824 Y56.212768

G01 Z-1.000000 F8000.0(Penetrate)
G01 X25.129912 Y54.541538 Z-1.000000 F8000.000000
G00 Z1.000000

(End cutting path id: path460)


(Start cutting path id: path13764)
(Change tool to Default tool)

G00 Z1.000000
G00 X28.411112 Y57.284571

G01 Z-1.000000 F8000.0(Penetrate)
G02 X27.280510 Y56.748582 Z-1.000000 I-5368.742512 J11317.132296 F8000.000000
G02 X26.149824 Y56.212768 Z-1.000000 I-2531.103728 J5341.089049
G00 Z1.000000

(End cutting path id: path13764)


(Start cutting path id: path458)
(Change tool to Default tool)

G00 Z1.000000
G00 X30.562132 Y58.284921

G01 Z-1.000000 F8000.0(Penetrate)
G02 X29.710139 Y58.475158 Z-1.000000 I9501.313449 J42403.010256 F8000.000000
G02 X28.858160 Y58.665457 Z-1.000000 I1504.938372 J6743.502317
G00 Z1.000000

(End cutting path id: path458)


(Start cutting path id: path13756)
(Change tool to Default tool)

G00 Z1.000000
G00 X28.411112 Y57.284571

G01 Z-1.000000 F8000.0(Penetrate)
G01 X30.562132 Y58.284921 Z-1.000000 F8000.000000
G00 Z1.000000

(End cutting path id: path13756)


(Start cutting path id: path13758)
(Change tool to Default tool)

G00 Z1.000000
G00 X27.348061 Y55.725464

G01 Z-1.000000 F8000.0(Penetrate)
G01 X28.411112 Y57.284571 Z-1.000000 F8000.000000
G00 Z1.000000

(End cutting path id: path13758)


(Start cutting path id: path13760)
(Change tool to Default tool)

G00 Z1.000000
G00 X26.636717 Y53.411666

G01 Z-1.000000 F8000.0(Penetrate)
G01 X27.348061 Y55.725464 Z-1.000000 F8000.000000
G00 Z1.000000

(End cutting path id: path13760)


(Start cutting path id: path994)
(Change tool to Default tool)

G00 Z1.000000
G00 X26.636717 Y53.411666

G01 Z-1.000000 F8000.0(Penetrate)
G01 X27.024770 Y51.684940 Z-1.000000 F8000.000000
G00 Z1.000000

(End cutting path id: path994)


(Start cutting path id: path1004)
(Change tool to Default tool)

G00 Z1.000000
G00 X24.405390 Y52.821299

G01 Z-1.000000 F8000.0(Penetrate)
G01 X27.024770 Y51.684940 Z-1.000000 F8000.000000
G00 Z1.000000

(End cutting path id: path1004)


(Start cutting path id: path894)
(Change tool to Default tool)

G00 Z1.000000
G00 X21.335152 Y53.106907

G01 Z-1.000000 F8000.0(Penetrate)
G01 X24.449662 Y53.268862 Z-1.000000 F8000.000000
G00 Z1.000000

(End cutting path id: path894)


(Start cutting path id: path974)
(Change tool to Default tool)

G00 Z1.000000
G00 X16.040660 Y50.473922

G01 Z-1.000000 F8000.0(Penetrate)
G01 X19.367503 Y49.728719 Z-1.000000 F8000.000000
G00 Z1.000000

(End cutting path id: path974)


(Start cutting path id: path13742)
(Change tool to Default tool)

G00 Z1.000000
G00 X13.791450 Y50.820599

G01 Z-1.000000 F8000.0(Penetrate)
G03 X14.916303 Y50.648397 Z-1.000000 I50.107725 J323.551088 F8000.000000
G02 X16.040660 Y50.473922 Z-1.000000 I-22.528602 J-148.889468
G00 Z1.000000

(End cutting path id: path13742)


(Start cutting path id: path13744)
(Change tool to Default tool)

G00 Z1.000000
G00 X16.031220 Y51.947795

G01 Z-1.000000 F8000.0(Penetrate)
G02 X14.911318 Y51.384231 Z-1.000000 I-3195.184145 J6349.553327 F8000.000000
G03 X13.791450 Y50.820599 Z-1.000000 I1892.219047 J-3761.546520
G00 Z1.000000

(End cutting path id: path13744)


(Start cutting path id: path13746)
(Change tool to Default tool)

G00 Z1.000000
G00 X18.289111 Y52.417802

G01 Z-1.000000 F8000.0(Penetrate)
G02 X17.160178 Y52.182734 Z-1.000000 I-1396.449375 J6700.999120 F8000.000000
G02 X16.031220 Y51.947795 Z-1.000000 I-4024.605828 J19359.487619
G00 Z1.000000

(End cutting path id: path13746)


(Start cutting path id: path978)
(Change tool to Default tool)

G00 Z1.000000
G00 X18.730393 Y52.900886

G01 Z-1.000000 F8000.0(Penetrate)
G01 X18.289111 Y52.417802 Z-1.000000 F8000.000000
G00 Z1.000000

(End cutting path id: path978)


(Start cutting path id: path976)
(Change tool to Default tool)

G00 Z1.000000
G00 X20.617013 Y52.324933

G01 Z-1.000000 F8000.0(Penetrate)
G01 X18.730393 Y52.900886 Z-1.000000 F8000.000000
G00 Z1.000000

(End cutting path id: path976)


(Start cutting path id: path1030)
(Change tool to Default tool)

G00 Z1.000000
G00 X22.649733 Y51.514235

G01 Z-1.000000 F8000.0(Penetrate)
G01 X20.617013 Y52.324933 Z-1.000000 F8000.000000
G00 Z1.000000

(End cutting path id: path1030)


(Start cutting path id: path13734)
(Change tool to Default tool)

G00 Z1.000000
G00 X23.487819 Y52.350776

G01 Z-1.000000 F8000.0(Penetrate)
G03 X23.068814 Y51.932468 Z-1.000000 I1553.857810 J-1556.773877 F8000.000000
G02 X22.649733 Y51.514235 Z-1.000000 I-668.976754 J669.895041
G00 Z1.000000

(End cutting path id: path13734)


(Start cutting path id: path1028)
(Change tool to Default tool)

G00 Z1.000000
G00 X24.822991 Y50.484541

G01 Z-1.000000 F8000.0(Penetrate)
G03 X24.155443 Y51.417686 Z-1.000000 I-15906.705258 J-11398.941824 F8000.000000
G03 X23.487819 Y52.350776 Z-1.000000 I-8957.827955 J-6402.144444
G00 Z1.000000

(End cutting path id: path1028)


(Start cutting path id: path13730)
(Change tool to Default tool)

G00 Z1.000000
G00 X22.649733 Y51.514235

G01 Z-1.000000 F8000.0(Penetrate)
G01 X24.822991 Y50.484541 Z-1.000000 F8000.000000
G00 Z1.000000

(End cutting path id: path13730)


(Start cutting path id: path734)
(Change tool to Default tool)

G00 Z1.000000
G00 X24.822991 Y50.484541

G01 Z-1.000000 F8000.0(Penetrate)
G03 X23.312787 Y50.425247 Z-1.000000 I396.516905 J-10120.433458 F8000.000000
G03 X21.802587 Y50.365830 Z-1.000000 I4334.997463 J-109968.538767
G00 Z1.000000

(End cutting path id: path734)


(Start cutting path id: path1016)
(Change tool to Default tool)

G00 Z1.000000
G00 X27.024770 Y51.684940

G01 Z-1.000000 F8000.0(Penetrate)
G01 X27.833101 Y48.385825 Z-1.000000 F8000.000000
G00 Z1.000000

(End cutting path id: path1016)


(Start cutting path id: path13724)
(Change tool to Default tool)

G00 Z1.000000
G00 X27.954695 Y50.323616

G01 Z-1.000000 F8000.0(Penetrate)
G02 X27.489699 Y51.004256 Z-1.000000 I162265.063703 J110588.450425 F8000.000000
G02 X27.024770 Y51.684940 Z-1.000000 I3569.837816 J2438.942512
G00 Z1.000000

(End cutting path id: path13724)


(Start cutting path id: path1094)
(Change tool to Default tool)

G00 Z1.000000
G00 X27.844860 Y48.372685

G01 Z-1.000000 F8000.0(Penetrate)
G01 X28.450340 Y47.696103 Z-1.000000 F8000.000000
G00 Z1.000000

(End cutting path id: path1094)


(Start cutting path id: path13720)
(Change tool to Default tool)

G00 Z1.000000
G00 X27.219774 Y48.831844

G01 Z-1.000000 F8000.0(Penetrate)
G03 X27.534047 Y48.603887 Z-1.000000 I10.610387 J14.297440 F8000.000000
G02 X27.844860 Y48.372685 Z-1.000000 I-4.885208 J-6.891880
G00 Z1.000000

(End cutting path id: path13720)


(Start cutting path id: path246)
(Change tool to Default tool)

G00 Z1.000000
G00 X26.311984 Y51.757114

G01 Z-1.000000 F8000.0(Penetrate)
G01 X27.219774 Y48.831844 Z-1.000000 F8000.000000
G00 Z1.000000

(End cutting path id: path246)


(Start cutting path id: path986)
(Change tool to Default tool)

G00 Z1.000000
G00 X27.219774 Y48.831844

G01 Z-1.000000 F8000.0(Penetrate)
G01 X26.200377 Y50.926647 Z-1.000000 F8000.000000
G00 Z1.000000

(End cutting path id: path986)


(Start cutting path id: path418)
(Change tool to Default tool)

G00 Z1.000000
G00 X24.822991 Y50.484541

G01 Z-1.000000 F8000.0(Penetrate)
G02 X25.280857 Y49.014511 Z-1.000000 I-7532.445050 J-2345.727711 F8000.000000
G03 X25.738606 Y47.544444 Z-1.000000 R42031.751164
G00 Z1.000000

(End cutting path id: path418)


(Start cutting path id: path416)
(Change tool to Default tool)

G00 Z1.000000
G00 X26.679960 Y48.865511

G01 Z-1.000000 F8000.0(Penetrate)
G03 X25.751512 Y49.675069 Z-1.000000 R44832.296184 F8000.000000
G03 X24.822991 Y50.484541 Z-1.000000 I-5249.315886 J-6022.213738
G00 Z1.000000

(End cutting path id: path416)


(Start cutting path id: path736)
(Change tool to Default tool)

G00 Z1.000000
G00 X23.964726 Y47.707222

G01 Z-1.000000 F8000.0(Penetrate)
G03 X23.927762 Y46.446025 Z-1.000000 I11853.048583 J-348.331594 F8000.000000
G02 X23.890697 Y45.184830 Z-1.000000 I-4721.475798 J138.175499
G00 Z1.000000

(End cutting path id: path736)


(Start cutting path id: path13708)
(Change tool to Default tool)

G00 Z1.000000
G00 X21.802587 Y50.365830

G01 Z-1.000000 F8000.0(Penetrate)
G01 X23.964726 Y47.707222 Z-1.000000 F8000.000000
G00 Z1.000000

(End cutting path id: path13708)


(Start cutting path id: path942)
(Change tool to Default tool)

G00 Z1.000000
G00 X21.802587 Y50.365830

G01 Z-1.000000 F8000.0(Penetrate)
G02 X21.625058 Y49.529334 Z-1.000000 R98576.949923 F8000.000000
G02 X21.447480 Y48.692849 Z-1.000000 I-7801.025961 J1660.103406
G00 Z1.000000

(End cutting path id: path942)


(Start cutting path id: path13704)
(Change tool to Default tool)

G00 Z1.000000
G00 X19.367503 Y49.728719

G01 Z-1.000000 F8000.0(Penetrate)
G01 X21.802587 Y50.365830 Z-1.000000 F8000.000000
G00 Z1.000000

(End cutting path id: path13704)


(Start cutting path id: path1808)
(Change tool to Default tool)

G00 Z1.000000
G00 X13.406486 Y27.111510

G01 Z-1.000000 F8000.0(Penetrate)
G01 X14.457285 Y27.950627 Z-1.000000 F8000.000000
G00 Z1.000000

(End cutting path id: path1808)


(Start cutting path id: path1690)
(Change tool to Default tool)

G00 Z1.000000
G00 X14.457285 Y27.950627

G01 Z-1.000000 F8000.0(Penetrate)
G01 X16.918006 Y25.451400 Z-1.000000 F8000.000000
G00 Z1.000000

(End cutting path id: path1690)


(Start cutting path id: path1892)
(Change tool to Default tool)

G00 Z1.000000
G00 X27.893125 Y26.538647

G01 Z-1.000000 F8000.0(Penetrate)
G01 X30.142059 Y26.080273 Z-1.000000 F8000.000000
G00 Z1.000000

(End cutting path id: path1892)


(Start cutting path id: path1816)
(Change tool to Default tool)

G00 Z1.000000
G00 X25.320180 Y26.661476

G01 Z-1.000000 F8000.0(Penetrate)
G02 X26.162266 Y27.779586 Z-1.000000 R29587.404876 F8000.000000
G03 X27.004281 Y28.897746 Z-1.000000 I-6456.692931 J4869.272523
G00 Z1.000000

(End cutting path id: path1816)


(Start cutting path id: path1888)
(Change tool to Default tool)

G00 Z1.000000
G00 X23.246174 Y23.698419

G01 Z-1.000000 F8000.0(Penetrate)
G01 X25.320180 Y26.661476 Z-1.000000 F8000.000000
G00 Z1.000000

(End cutting path id: path1888)


(Start cutting path id: path13684)
(Change tool to Default tool)

G00 Z1.000000
G00 X21.934593 Y25.948076

G01 Z-1.000000 F8000.0(Penetrate)
G03 X22.590342 Y24.823224 Z-1.000000 I10562.458291 J6162.999414 F8000.000000
G03 X23.246174 Y23.698419 Z-1.000000 R30643.743960
G00 Z1.000000

(End cutting path id: path13684)


(Start cutting path id: path13686)
(Change tool to Default tool)

G00 Z1.000000
G00 X20.865247 Y28.556540

G01 Z-1.000000 F8000.0(Penetrate)
G02 X21.399251 Y27.251921 Z-1.000000 I-667.551904 J-274.002464 F8000.000000
G03 X21.934593 Y25.948076 Z-1.000000 I316.218051 J129.073193
G00 Z1.000000

(End cutting path id: path13686)


(Start cutting path id: path13688)
(Change tool to Default tool)

G00 Z1.000000
G00 X23.543005 Y29.336969

G01 Z-1.000000 F8000.0(Penetrate)
G01 X20.865247 Y28.556540 Z-1.000000 F8000.000000
G00 Z1.000000

(End cutting path id: path13688)


(Start cutting path id: path13690)
(Change tool to Default tool)

G00 Z1.000000
G00 X22.214113 Y31.355171

G01 Z-1.000000 F8000.0(Penetrate)
G01 X23.543005 Y29.336969 Z-1.000000 F8000.000000
G00 Z1.000000

(End cutting path id: path13690)


(Start cutting path id: path13692)
(Change tool to Default tool)

G00 Z1.000000
G00 X20.865247 Y28.556540

G01 Z-1.000000 F8000.0(Penetrate)
G01 X22.214113 Y31.355171 Z-1.000000 F8000.000000
G00 Z1.000000

(End cutting path id: path13692)


(Start cutting path id: path1424)
(Change tool to Default tool)

G00 Z1.000000
G00 X17.563147 Y32.523138

G01 Z-1.000000 F8000.0(Penetrate)
G02 X18.289763 Y31.688840 Z-1.000000 I-4500.682744 J-3918.379159 F8000.000000
G03 X19.016310 Y30.854482 Z-1.000000 R59920.919661
G00 Z1.000000

(End cutting path id: path1424)


(Start cutting path id: path13680)
(Change tool to Default tool)

G00 Z1.000000
G00 X15.971916 Y31.187554

G01 Z-1.000000 F8000.0(Penetrate)
G03 X16.767554 Y31.855317 Z-1.000000 R11291.066566 F8000.000000
G03 X17.563147 Y32.523138 Z-1.000000 R20105.085782
G00 Z1.000000

(End cutting path id: path13680)


(Start cutting path id: path1854)
(Change tool to Default tool)

G00 Z1.000000
G00 X13.656574 Y29.682911

G01 Z-1.000000 F8000.0(Penetrate)
G02 X13.755525 Y30.521364 Z-1.000000 I55414.342978 J-6597.062013 F8000.000000
G02 X13.854564 Y31.359804 Z-1.000000 I4361.089196 J-514.359391
G00 Z1.000000

(End cutting path id: path1854)


(Start cutting path id: path13676)
(Change tool to Default tool)

G00 Z1.000000
G00 X14.981449 Y30.993683

G01 Z-1.000000 F8000.0(Penetrate)
G01 X13.656574 Y29.682911 Z-1.000000 F8000.000000
G00 Z1.000000

(End cutting path id: path13676)


(Start cutting path id: path1806)
(Change tool to Default tool)

G00 Z1.000000
G00 X12.825797 Y29.218772

G01 Z-1.000000 F8000.0(Penetrate)
G01 X13.656574 Y29.682911 Z-1.000000 F8000.000000
G00 Z1.000000

(End cutting path id: path1806)


(Start cutting path id: path13672)
(Change tool to Default tool)

G00 Z1.000000
G00 X13.406486 Y27.111510

G01 Z-1.000000 F8000.0(Penetrate)
G03 X13.116100 Y28.165130 Z-1.000000 I-5263.344505 J-1450.801778 F8000.000000
G02 X12.825797 Y29.218772 Z-1.000000 I2953.756824 J814.632436
G00 Z1.000000

(End cutting path id: path13672)


(Start cutting path id: path1880)
(Change tool to Default tool)

G00 Z1.000000
G00 X13.956699 Y24.441990

G01 Z-1.000000 F8000.0(Penetrate)
G02 X14.331081 Y24.937308 Z-1.000000 I4247.306152 J-3211.590368 F8000.000000
G03 X14.705417 Y25.432661 Z-1.000000 I-1643.778288 J1242.838280
G00 Z1.000000

(End cutting path id: path1880)


(Start cutting path id: path13666)
(Change tool to Default tool)

G00 Z1.000000
G00 X13.406486 Y27.111510

G01 Z-1.000000 F8000.0(Penetrate)
G01 X13.956699 Y24.441990 Z-1.000000 F8000.000000
G00 Z1.000000

(End cutting path id: path13666)


(Start cutting path id: path13668)
(Change tool to Default tool)

G00 Z1.000000
G00 X13.079591 Y26.255715

G01 Z-1.000000 F8000.0(Penetrate)
G01 X13.406486 Y27.111510 Z-1.000000 F8000.000000
G00 Z1.000000

(End cutting path id: path13668)


(Start cutting path id: path1846)
(Change tool to Default tool)

G00 Z1.000000
G00 X13.406486 Y27.111510

G01 Z-1.000000 F8000.0(Penetrate)
G01 X14.705417 Y25.432661 Z-1.000000 F8000.000000
G00 Z1.000000

(End cutting path id: path1846)


(Start cutting path id: path1812)
(Change tool to Default tool)

G00 Z1.000000
G00 X13.656574 Y29.682911

G01 Z-1.000000 F8000.0(Penetrate)
G01 X13.406486 Y27.111510 Z-1.000000 F8000.000000
G00 Z1.000000

(End cutting path id: path1812)


(Start cutting path id: path1400)
(Change tool to Default tool)

G00 Z1.000000
G00 X14.554479 Y31.066062

G01 Z-1.000000 F8000.0(Penetrate)
G01 X12.237490 Y32.236706 Z-1.000000 F8000.000000
G00 Z1.000000

(End cutting path id: path1400)


(Start cutting path id: path1098)
(Change tool to Default tool)

G00 Z1.000000
G00 X12.237490 Y32.236706

G01 Z-1.000000 F8000.0(Penetrate)
G01 X12.026218 Y35.202441 Z-1.000000 F8000.000000
G00 Z1.000000

(End cutting path id: path1098)


(Start cutting path id: path1402)
(Change tool to Default tool)

G00 Z1.000000
G00 X12.237490 Y32.236706

G01 Z-1.000000 F8000.0(Penetrate)
G01 X12.086963 Y32.101418 Z-1.000000 F8000.000000
G00 Z1.000000

(End cutting path id: path1402)


(Start cutting path id: path13650)
(Change tool to Default tool)

G00 Z1.000000
G00 X14.038242 Y32.129011

G01 Z-1.000000 F8000.0(Penetrate)
G01 X12.237490 Y32.236706 Z-1.000000 F8000.000000
G00 Z1.000000

(End cutting path id: path13650)


(Start cutting path id: path13652)
(Change tool to Default tool)

G00 Z1.000000
G00 X14.554479 Y31.066062

G01 Z-1.000000 F8000.0(Penetrate)
G03 X14.296335 Y31.597524 Z-1.000000 I-3650.795972 J-1773.193161 F8000.000000
G02 X14.038242 Y32.129011 Z-1.000000 I1555.024895 J755.497893
G00 Z1.000000

(End cutting path id: path13652)


(Start cutting path id: path13654)
(Change tool to Default tool)

G00 Z1.000000
G00 X15.971916 Y31.187554

G01 Z-1.000000 F8000.0(Penetrate)
G01 X14.554479 Y31.066062 Z-1.000000 F8000.000000
G00 Z1.000000

(End cutting path id: path13654)


(Start cutting path id: path1396)
(Change tool to Default tool)

G00 Z1.000000
G00 X14.038242 Y32.129011

G01 Z-1.000000 F8000.0(Penetrate)
G02 X15.005094 Y31.658314 Z-1.000000 R11709.252597 F8000.000000
G02 X15.971916 Y31.187554 Z-1.000000 R30526.517501
G00 Z1.000000

(End cutting path id: path1396)


(Start cutting path id: path1398)
(Change tool to Default tool)

G00 Z1.000000
G00 X15.127239 Y33.536049

G01 Z-1.000000 F8000.0(Penetrate)
G01 X14.038242 Y32.129011 Z-1.000000 F8000.000000
G00 Z1.000000

(End cutting path id: path1398)


(Start cutting path id: path13644)
(Change tool to Default tool)

G00 Z1.000000
G00 X15.971916 Y31.187554

G01 Z-1.000000 F8000.0(Penetrate)
G02 X15.549635 Y32.361822 Z-1.000000 I15118.020036 J5430.902771 F8000.000000
G03 X15.127239 Y33.536049 Z-1.000000 I-4314.637185 J-1550.886577
G00 Z1.000000

(End cutting path id: path13644)


(Start cutting path id: path1236)
(Change tool to Default tool)

G00 Z1.000000
G00 X17.563147 Y32.523138

G01 Z-1.000000 F8000.0(Penetrate)
G03 X18.758315 Y33.072075 Z-1.000000 R92133.297831 F8000.000000
G03 X19.953442 Y33.621093 Z-1.000000 I-4403.314957 J9594.754577
G00 Z1.000000

(End cutting path id: path1236)


(Start cutting path id: path1234)
(Change tool to Default tool)

G00 Z1.000000
G00 X16.724133 Y34.636475

G01 Z-1.000000 F8000.0(Penetrate)
G01 X17.563147 Y32.523138 Z-1.000000 F8000.000000
G00 Z1.000000

(End cutting path id: path1234)


(Start cutting path id: path1324)
(Change tool to Default tool)

G00 Z1.000000
G00 X15.071127 Y36.979512

G01 Z-1.000000 F8000.0(Penetrate)
G01 X18.755206 Y36.280730 Z-1.000000 F8000.000000
G00 Z1.000000

(End cutting path id: path1324)


(Start cutting path id: path13634)
(Change tool to Default tool)

G00 Z1.000000
G00 X16.724133 Y34.636475

G01 Z-1.000000 F8000.0(Penetrate)
G03 X15.897662 Y35.808016 Z-1.000000 I-9552.619567 J-6732.854821 F8000.000000
G02 X15.071127 Y36.979512 Z-1.000000 R93243.578713
G00 Z1.000000

(End cutting path id: path13634)


(Start cutting path id: path13636)
(Change tool to Default tool)

G00 Z1.000000
G00 X18.755206 Y36.280730

G01 Z-1.000000 F8000.0(Penetrate)
G01 X16.724133 Y34.636475 Z-1.000000 F8000.000000
G00 Z1.000000

(End cutting path id: path13636)


(Start cutting path id: path1260)
(Change tool to Default tool)

G00 Z1.000000
G00 X16.990901 Y38.802917

G01 Z-1.000000 F8000.0(Penetrate)
G01 X14.776767 Y40.270082 Z-1.000000 F8000.000000
G00 Z1.000000

(End cutting path id: path1260)


(Start cutting path id: path13630)
(Change tool to Default tool)

G00 Z1.000000
G00 X18.755206 Y36.280730

G01 Z-1.000000 F8000.0(Penetrate)
G01 X16.990901 Y38.802917 Z-1.000000 F8000.000000
G00 Z1.000000

(End cutting path id: path13630)


(Start cutting path id: path1322)
(Change tool to Default tool)

G00 Z1.000000
G00 X19.953442 Y33.621093

G01 Z-1.000000 F8000.0(Penetrate)
G01 X18.755206 Y36.280730 Z-1.000000 F8000.000000
G00 Z1.000000

(End cutting path id: path1322)


(Start cutting path id: path1404)
(Change tool to Default tool)

G00 Z1.000000
G00 X21.662665 Y36.948934

G01 Z-1.000000 F8000.0(Penetrate)
G02 X22.009828 Y35.627362 Z-1.000000 R9157.947785 F8000.000000
G03 X22.356918 Y34.305771 Z-1.000000 R34634.747198
G00 Z1.000000

(End cutting path id: path1404)


(Start cutting path id: path13624)
(Change tool to Default tool)

G00 Z1.000000
G00 X19.953442 Y33.621093

G01 Z-1.000000 F8000.0(Penetrate)
G01 X21.662665 Y36.948934 Z-1.000000 F8000.000000
G00 Z1.000000

(End cutting path id: path13624)


(Start cutting path id: path1412)
(Change tool to Default tool)

G00 Z1.000000
G00 X17.563147 Y32.523138

G01 Z-1.000000 F8000.0(Penetrate)
G01 X20.978400 Y31.871922 Z-1.000000 F8000.000000
G00 Z1.000000

(End cutting path id: path1412)


(Start cutting path id: path1266)
(Change tool to Default tool)

G00 Z1.000000
G00 X15.127239 Y33.536049

G01 Z-1.000000 F8000.0(Penetrate)
G02 X16.345211 Y33.029635 Z-1.000000 I-2431.009164 J-5844.520570 F8000.000000
G03 X17.563147 Y32.523138 Z-1.000000 I6891.166220 J16537.066470
G00 Z1.000000

(End cutting path id: path1266)


(Start cutting path id: path1354)
(Change tool to Default tool)

G00 Z1.000000
G00 X12.237490 Y32.236706

G01 Z-1.000000 F8000.0(Penetrate)
G01 X15.127239 Y33.536049 Z-1.000000 F8000.000000
G00 Z1.000000

(End cutting path id: path1354)


(Start cutting path id: path1102)
(Change tool to Default tool)

G00 Z1.000000
G00 X10.344691 Y34.371355

G01 Z-1.000000 F8000.0(Penetrate)
G01 X12.237490 Y32.236706 Z-1.000000 F8000.000000
G00 Z1.000000

(End cutting path id: path1102)


(Start cutting path id: path1100)
(Change tool to Default tool)

G00 Z1.000000
G00 X12.026218 Y35.202441

G01 Z-1.000000 F8000.0(Penetrate)
G02 X11.185475 Y34.786867 Z-1.000000 I-1375.061799 J2780.210429 F8000.000000
G03 X10.344691 Y34.371355 Z-1.000000 I2812.740950 J-5690.053881
G00 Z1.000000

(End cutting path id: path1100)


(Start cutting path id: path1290)
(Change tool to Default tool)

G00 Z1.000000
G00 X15.071127 Y36.979512

G01 Z-1.000000 F8000.0(Penetrate)
G01 X12.817869 Y37.524989 Z-1.000000 F8000.000000
G00 Z1.000000

(End cutting path id: path1290)


(Start cutting path id: path1262)
(Change tool to Default tool)

G00 Z1.000000
G00 X14.776767 Y40.270082

G01 Z-1.000000 F8000.0(Penetrate)
G01 X15.071127 Y36.979512 Z-1.000000 F8000.000000
G00 Z1.000000

(End cutting path id: path1262)


(Start cutting path id: path746)
(Change tool to Default tool)

G00 Z1.000000
G00 X11.631987 Y44.111689

G01 Z-1.000000 F8000.0(Penetrate)
G03 X11.331441 Y44.427249 Z-1.000000 I-3162.869951 J-3010.073565 F8000.000000
G02 X11.030913 Y44.742827 Z-1.000000 I1468.237525 J1398.086977
G00 Z1.000000

(End cutting path id: path746)


(Start cutting path id: path954)
(Change tool to Default tool)

G00 Z1.000000
G00 X11.170216 Y49.879451

G01 Z-1.000000 F8000.0(Penetrate)
G02 X11.320463 Y49.084449 Z-1.000000 R355888.344249 F8000.000000
G03 X11.470754 Y48.289456 Z-1.000000 I7003.442524 J1321.020103
G00 Z1.000000

(End cutting path id: path954)


(Start cutting path id: path13598)
(Change tool to Default tool)

G00 Z1.000000
G00 X10.444146 Y47.597324

G01 Z-1.000000 F8000.0(Penetrate)
G02 X10.807142 Y48.738400 Z-1.000000 I7916.549267 J-2514.330903 F8000.000000
G03 X11.170216 Y49.879451 Z-1.000000 R208783.859447
G00 Z1.000000

(End cutting path id: path13598)


(Start cutting path id: path13600)
(Change tool to Default tool)

G00 Z1.000000
G00 X10.471224 Y47.228087

G01 Z-1.000000 F8000.0(Penetrate)
G03 X10.455504 Y47.413277 Z-1.000000 I-4.380266 J-0.278562 F8000.000000
G02 X10.444146 Y47.597324 Z-1.000000 I2.073821 J0.220353
G00 Z1.000000

(End cutting path id: path13600)


(Start cutting path id: path13602)
(Change tool to Default tool)

G00 Z1.000000
G00 X10.873308 Y45.430445

G01 Z-1.000000 F8000.0(Penetrate)
G03 X10.671513 Y46.329203 Z-1.000000 I-300.142306 J-66.917936 F8000.000000
G02 X10.471224 Y47.228087 Z-1.000000 I143.808275 J32.515119
G00 Z1.000000

(End cutting path id: path13602)


(Start cutting path id: path13604)
(Change tool to Default tool)

G00 Z1.000000
G00 X10.822215 Y43.715914

G01 Z-1.000000 F8000.0(Penetrate)
G02 X10.849172 Y44.573475 Z-1.000000 I149.153935 J-4.259323 F8000.000000
G03 X10.873308 Y45.430445 Z-1.000000 I-69.756247 J2.393495
G00 Z1.000000

(End cutting path id: path13604)


(Start cutting path id: path1250)
(Change tool to Default tool)

G00 Z1.000000
G00 X9.837515 Y40.573091

G01 Z-1.000000 F8000.0(Penetrate)
G01 X10.614444 Y42.693737 Z-1.000000 F8000.000000
G00 Z1.000000

(End cutting path id: path1250)


(Start cutting path id: path1150)
(Change tool to Default tool)

G00 Z1.000000
G00 X9.978672 Y36.355479

G01 Z-1.000000 F8000.0(Penetrate)
G01 X10.587881 Y38.157260 Z-1.000000 F8000.000000
G00 Z1.000000

(End cutting path id: path1150)


(Start cutting path id: path13588)
(Change tool to Default tool)

G00 Z1.000000
G00 X10.344691 Y34.371355

G01 Z-1.000000 F8000.0(Penetrate)
G01 X9.978672 Y36.355479 Z-1.000000 F8000.000000
G00 Z1.000000

(End cutting path id: path13588)


(Start cutting path id: path13590)
(Change tool to Default tool)

G00 Z1.000000
G00 X10.587881 Y38.157260

G01 Z-1.000000 F8000.0(Penetrate)
G01 X10.344691 Y34.371355 Z-1.000000 F8000.000000
G00 Z1.000000

(End cutting path id: path13590)


(Start cutting path id: path13592)
(Change tool to Default tool)

G00 Z1.000000
G00 X12.026218 Y35.202441

G01 Z-1.000000 F8000.0(Penetrate)
G01 X10.587881 Y38.157260 Z-1.000000 F8000.000000
G00 Z1.000000

(End cutting path id: path13592)


(Start cutting path id: path1252)
(Change tool to Default tool)

G00 Z1.000000
G00 X9.837515 Y40.573091

G01 Z-1.000000 F8000.0(Penetrate)
G03 X9.950910 Y38.907775 Z-1.000000 I12506.925252 J852.314552 F8000.000000
G03 X10.064437 Y37.242470 Z-1.000000 R64235.793617
G00 Z1.000000

(End cutting path id: path1252)


(Start cutting path id: path13582)
(Change tool to Default tool)

G00 Z1.000000
G00 X10.348907 Y42.163296

G01 Z-1.000000 F8000.0(Penetrate)
G02 X10.093167 Y41.368206 Z-1.000000 I-5233.185248 J1683.124484 F8000.000000
G03 X9.837515 Y40.573091 Z-1.000000 I2138.489590 J-688.074679
G00 Z1.000000

(End cutting path id: path13582)


(Start cutting path id: path13584)
(Change tool to Default tool)

G00 Z1.000000
G00 X10.813361 Y43.672259

G01 Z-1.000000 F8000.0(Penetrate)
G02 X10.587162 Y42.915933 Z-1.000000 I-170.996576 J50.729112 F8000.000000
G02 X10.348907 Y42.163296 Z-1.000000 I-27.472445 J8.282648
G00 Z1.000000

(End cutting path id: path13584)


(Start cutting path id: path222)
(Change tool to Default tool)

G00 Z1.000000
G00 X12.817869 Y37.524989

G01 Z-1.000000 F8000.0(Penetrate)
G01 X11.731858 Y41.449375 Z-1.000000 F8000.000000
G00 Z1.000000

(End cutting path id: path222)


(Start cutting path id: path1296)
(Change tool to Default tool)

G00 Z1.000000
G00 X14.776767 Y40.270082

G01 Z-1.000000 F8000.0(Penetrate)
G01 X12.817869 Y37.524989 Z-1.000000 F8000.000000
G00 Z1.000000

(End cutting path id: path1296)


(Start cutting path id: path484)
(Change tool to Default tool)

G00 Z1.000000
G00 X15.016250 Y44.576857

G01 Z-1.000000 F8000.0(Penetrate)
G02 X14.303808 Y43.248822 Z-1.000000 I-9574.174157 J5137.513197 F8000.000000
G03 X13.591297 Y41.920824 Z-1.000000 R42444.537644
G00 Z1.000000

(End cutting path id: path484)


(Start cutting path id: path13570)
(Change tool to Default tool)

G00 Z1.000000
G00 X12.948010 Y44.011097

G01 Z-1.000000 F8000.0(Penetrate)
G03 X13.982144 Y44.293925 Z-1.000000 I-6827.407001 J24943.954309 F8000.000000
G03 X15.016250 Y44.576857 Z-1.000000 I-1752.973561 J6410.515095
G00 Z1.000000

(End cutting path id: path13570)


(Start cutting path id: path13572)
(Change tool to Default tool)

G00 Z1.000000
G00 X11.631987 Y44.111689

G01 Z-1.000000 F8000.0(Penetrate)
G01 X12.948010 Y44.011097 Z-1.000000 F8000.000000
G00 Z1.000000

(End cutting path id: path13572)


(Start cutting path id: path744)
(Change tool to Default tool)

G00 Z1.000000
G00 X10.865063 Y42.349393

G01 Z-1.000000 F8000.0(Penetrate)
G02 X11.248482 Y43.230560 Z-1.000000 I11841.723668 J-5148.034803 F8000.000000
G02 X11.631987 Y44.111689 Z-1.000000 I7267.232633 J-3164.028475
G00 Z1.000000

(End cutting path id: path744)


(Start cutting path id: path13566)
(Change tool to Default tool)

G00 Z1.000000
G00 X10.385463 Y39.935877

G01 Z-1.000000 F8000.0(Penetrate)
G03 X10.624118 Y41.143116 Z-1.000000 I-369.156689 J73.604524 F8000.000000
G02 X10.865063 Y42.349393 Z-1.000000 I167.063750 J-32.742593
G00 Z1.000000

(End cutting path id: path13566)


(Start cutting path id: path1288)
(Change tool to Default tool)

G00 Z1.000000
G00 X10.385463 Y39.935877

G01 Z-1.000000 F8000.0(Penetrate)
G02 X10.177256 Y39.354785 Z-1.000000 I-5150.001002 J1843.801131 F8000.000000
G03 X9.969097 Y38.773676 Z-1.000000 I2082.883573 J-746.251517
G00 Z1.000000

(End cutting path id: path1288)


(Start cutting path id: path13560)
(Change tool to Default tool)

G00 Z1.000000
G00 X10.290535 Y41.100035

G01 Z-1.000000 F8000.0(Penetrate)
G02 X10.337947 Y40.517952 Z-1.000000 I-2111.678861 J-172.373874 F8000.000000
G03 X10.385463 Y39.935877 Z-1.000000 I922.180969 J75.001509
G00 Z1.000000

(End cutting path id: path13560)


(Start cutting path id: path13562)
(Change tool to Default tool)

G00 Z1.000000
G00 X9.969097 Y38.773676

G01 Z-1.000000 F8000.0(Penetrate)
G02 X10.129853 Y39.936850 Z-1.000000 I11894.096019 J-1637.414847 F8000.000000
G03 X10.290535 Y41.100035 Z-1.000000 I-5116.089940 J706.248141
G00 Z1.000000

(End cutting path id: path13562)


(Start cutting path id: path224)
(Change tool to Default tool)

G00 Z1.000000
G00 X11.731858 Y41.449375

G01 Z-1.000000 F8000.0(Penetrate)
G01 X10.587881 Y38.157260 Z-1.000000 F8000.000000
G00 Z1.000000

(End cutting path id: path224)


(Start cutting path id: path1298)
(Change tool to Default tool)

G00 Z1.000000
G00 X14.776767 Y40.270082

G01 Z-1.000000 F8000.0(Penetrate)
G03 X14.184058 Y41.095471 Z-1.000000 I-14313.379001 J-10289.557249 F8000.000000
G03 X13.591297 Y41.920824 Z-1.000000 I-12717.140212 J-9123.408798
G00 Z1.000000

(End cutting path id: path1298)


(Start cutting path id: path13546)
(Change tool to Default tool)

G00 Z1.000000
G00 X16.577726 Y42.082264

G01 Z-1.000000 F8000.0(Penetrate)
G01 X14.776767 Y40.270082 Z-1.000000 F8000.000000
G00 Z1.000000

(End cutting path id: path13546)


(Start cutting path id: path13548)
(Change tool to Default tool)

G00 Z1.000000
G00 X13.591297 Y41.920824

G01 Z-1.000000 F8000.0(Penetrate)
G01 X16.577726 Y42.082264 Z-1.000000 F8000.000000
G00 Z1.000000

(End cutting path id: path13548)


(Start cutting path id: path13550)
(Change tool to Default tool)

G00 Z1.000000
G00 X12.819397 Y37.533673

G01 Z-1.000000 F8000.0(Penetrate)
G01 X13.591297 Y41.920824 Z-1.000000 F8000.000000
G00 Z1.000000

(End cutting path id: path13550)


(Start cutting path id: path13552)
(Change tool to Default tool)

G00 Z1.000000
G00 X12.026218 Y35.202441

G01 Z-1.000000 F8000.0(Penetrate)
G02 X12.423626 Y36.367914 Z-1.000000 I480.728263 J-163.270439 F8000.000000
G03 X12.819397 Y37.533673 Z-1.000000 I-228.727383 J78.302255
G00 Z1.000000

(End cutting path id: path13552)


(Start cutting path id: path13554)
(Change tool to Default tool)

G00 Z1.000000
G00 X15.127239 Y33.536049

G01 Z-1.000000 F8000.0(Penetrate)
G01 X12.026218 Y35.202441 Z-1.000000 F8000.000000
G00 Z1.000000

(End cutting path id: path13554)


(Start cutting path id: path1264)
(Change tool to Default tool)

G00 Z1.000000
G00 X16.724133 Y34.636475

G01 Z-1.000000 F8000.0(Penetrate)
G01 X15.127239 Y33.536049 Z-1.000000 F8000.000000
G00 Z1.000000

(End cutting path id: path1264)


(Start cutting path id: path1238)
(Change tool to Default tool)

G00 Z1.000000
G00 X19.953442 Y33.621093

G01 Z-1.000000 F8000.0(Penetrate)
G01 X16.724133 Y34.636475 Z-1.000000 F8000.000000
G00 Z1.000000

(End cutting path id: path1238)


(Start cutting path id: path1570)
(Change tool to Default tool)

G00 Z1.000000
G00 X27.236968 Y34.241833

G01 Z-1.000000 F8000.0(Penetrate)
G01 X28.681174 Y36.360214 Z-1.000000 F8000.000000
G00 Z1.000000

(End cutting path id: path1570)


(Start cutting path id: path1416)
(Change tool to Default tool)

G00 Z1.000000
G00 X27.236968 Y34.241833

G01 Z-1.000000 F8000.0(Penetrate)
G03 X26.597879 Y34.667124 Z-1.000000 I-13840.853212 J-20835.396924 F8000.000000
G02 X25.958835 Y35.092481 Z-1.000000 I1772.244884 J2663.872397
G00 Z1.000000

(End cutting path id: path1416)


(Start cutting path id: path1560)
(Change tool to Default tool)

G00 Z1.000000
G00 X35.538243 Y41.805808

G01 Z-1.000000 F8000.0(Penetrate)
G03 X36.480899 Y41.256760 Z-1.000000 R11507.009667 F8000.000000
G02 X37.423525 Y40.707658 Z-1.000000 I-2630.335406 J-4512.066075
G00 Z1.000000

(End cutting path id: path1560)


(Start cutting path id: path13532)
(Change tool to Default tool)

G00 Z1.000000
G00 X33.567626 Y42.618822

G01 Z-1.000000 F8000.0(Penetrate)
G03 X34.553295 Y42.212925 Z-1.000000 I164.983239 J399.240748 F8000.000000
G02 X35.538243 Y41.805808 Z-1.000000 I-79.339283 J-193.342358
G00 Z1.000000

(End cutting path id: path13532)


(Start cutting path id: path13534)
(Change tool to Default tool)

G00 Z1.000000
G00 X31.252884 Y43.133990

G01 Z-1.000000 F8000.0(Penetrate)
G03 X32.410625 Y42.877330 Z-1.000000 I88.531401 J396.607465 F8000.000000
G02 X33.567626 Y42.618822 Z-1.000000 I-40.912376 J-185.830100
G00 Z1.000000

(End cutting path id: path13534)


(Start cutting path id: path892)
(Change tool to Default tool)

G00 Z1.000000
G00 X31.669044 Y43.134916

G01 Z-1.000000 F8000.0(Penetrate)
G01 X30.831061 Y43.421040 Z-1.000000 F8000.000000
G00 Z1.000000

(End cutting path id: path892)


(Start cutting path id: path1480)
(Change tool to Default tool)

G00 Z1.000000
G00 X31.669044 Y43.134916

G01 Z-1.000000 F8000.0(Penetrate)
G01 X31.586368 Y43.178777 Z-1.000000 F8000.000000
G00 Z1.000000

(End cutting path id: path1480)


(Start cutting path id: path13526)
(Change tool to Default tool)

G00 Z1.000000
G00 X31.162486 Y43.195560

G01 Z-1.000000 F8000.0(Penetrate)
G01 X31.669044 Y43.134916 Z-1.000000 F8000.000000
G00 Z1.000000

(End cutting path id: path13526)


(Start cutting path id: path1376)
(Change tool to Default tool)

G00 Z1.000000
G00 X31.569641 Y43.184358

G01 Z-1.000000 F8000.0(Penetrate)
G01 X30.802644 Y43.440292 Z-1.000000 F8000.000000
G00 Z1.000000

(End cutting path id: path1376)


(Start cutting path id: path13520)
(Change tool to Default tool)

G00 Z1.000000
G00 X33.388468 Y42.819244

G01 Z-1.000000 F8000.0(Penetrate)
G03 X32.478615 Y43.000441 Z-1.000000 I-34.839523 J-172.566009 F8000.000000
G02 X31.569641 Y43.184358 Z-1.000000 I15.691324 J79.889733
G00 Z1.000000

(End cutting path id: path13520)


(Start cutting path id: path13522)
(Change tool to Default tool)

G00 Z1.000000
G00 X35.079046 Y42.369416

G01 Z-1.000000 F8000.0(Penetrate)
G02 X34.234028 Y42.595666 Z-1.000000 I38.054158 J143.818896 F8000.000000
G03 X33.388468 Y42.819244 Z-1.000000 I-18.893737 J-69.744449
G00 Z1.000000

(End cutting path id: path13522)


(Start cutting path id: path1564)
(Change tool to Default tool)

G00 Z1.000000
G00 X37.423525 Y40.707658

G01 Z-1.000000 F8000.0(Penetrate)
G01 X39.994926 Y40.707175 Z-1.000000 F8000.000000
G00 Z1.000000

(End cutting path id: path1564)


(Start cutting path id: path1478)
(Change tool to Default tool)

G00 Z1.000000
G00 X37.527102 Y41.722319

G01 Z-1.000000 F8000.0(Penetrate)
G01 X39.954772 Y41.946872 Z-1.000000 F8000.000000
G00 Z1.000000

(End cutting path id: path1478)


(Start cutting path id: path13514)
(Change tool to Default tool)

G00 Z1.000000
G00 X37.423525 Y40.707658

G01 Z-1.000000 F8000.0(Penetrate)
G01 X37.527102 Y41.722319 Z-1.000000 F8000.000000
G00 Z1.000000

(End cutting path id: path13514)


(Start cutting path id: path1694)
(Change tool to Default tool)

G00 Z1.000000
G00 X39.994926 Y40.707143

G01 Z-1.000000 F8000.0(Penetrate)
G01 X37.874692 Y39.249038 Z-1.000000 F8000.000000
G00 Z1.000000

(End cutting path id: path1694)


(Start cutting path id: path13506)
(Change tool to Default tool)

G00 Z1.000000
G00 X39.381703 Y38.452238

G01 Z-1.000000 F8000.0(Penetrate)
G03 X39.688280 Y39.579700 Z-1.000000 R33985.000695 F8000.000000
G02 X39.994926 Y40.707143 Z-1.000000 I7152.086150 J-1947.285818
G00 Z1.000000

(End cutting path id: path13506)


(Start cutting path id: path13508)
(Change tool to Default tool)

G00 Z1.000000
G00 X37.874692 Y39.249038

G01 Z-1.000000 F8000.0(Penetrate)
G02 X38.628213 Y38.850669 Z-1.000000 I-29465.756428 J-55697.729789 F8000.000000
G02 X39.381703 Y38.452238 Z-1.000000 I-2714.389725 J-5134.538238
G00 Z1.000000

(End cutting path id: path13508)


(Start cutting path id: path13510)
(Change tool to Default tool)

G00 Z1.000000
G00 X37.423525 Y40.707658

G01 Z-1.000000 F8000.0(Penetrate)
G01 X37.874692 Y39.249038 Z-1.000000 F8000.000000
G00 Z1.000000

(End cutting path id: path13510)


(Start cutting path id: path1366)
(Change tool to Default tool)

G00 Z1.000000
G00 X39.381703 Y38.452238

G01 Z-1.000000 F8000.0(Penetrate)
G03 X38.093486 Y38.240206 Z-1.000000 I3301.025805 J-19966.948294 F8000.000000
G02 X36.805257 Y38.028253 Z-1.000000 I-1143.478173 J6934.723960
G00 Z1.000000

(End cutting path id: path1366)


(Start cutting path id: path1368)
(Change tool to Default tool)

G00 Z1.000000
G00 X36.805257 Y38.028253

G01 Z-1.000000 F8000.0(Penetrate)
G02 X37.344437 Y37.193021 Z-1.000000 I-11392.152387 J-7358.715591 F8000.000000
G02 X37.883546 Y36.357743 Z-1.000000 I-8490.733830 J-5478.517697
G00 Z1.000000

(End cutting path id: path1368)


(Start cutting path id: path1502)
(Change tool to Default tool)

G00 Z1.000000
G00 X32.208137 Y35.460146

G01 Z-1.000000 F8000.0(Penetrate)
G01 X32.757424 Y38.217286 Z-1.000000 F8000.000000
G00 Z1.000000

(End cutting path id: path1502)


(Start cutting path id: path1800)
(Change tool to Default tool)

G00 Z1.000000
G00 X32.208137 Y35.460146

G01 Z-1.000000 F8000.0(Penetrate)
G01 X30.140206 Y34.744067 Z-1.000000 F8000.000000
G00 Z1.000000

(End cutting path id: path1800)


(Start cutting path id: path1668)
(Change tool to Default tool)

G00 Z1.000000
G00 X37.035473 Y29.292903

G01 Z-1.000000 F8000.0(Penetrate)
G01 X38.636588 Y27.178743 Z-1.000000 F8000.000000
G00 Z1.000000

(End cutting path id: path1668)


(Start cutting path id: path13494)
(Change tool to Default tool)

G00 Z1.000000
G00 X35.522285 Y27.144972

G01 Z-1.000000 F8000.0(Penetrate)
G01 X37.035473 Y29.292903 Z-1.000000 F8000.000000
G00 Z1.000000

(End cutting path id: path13494)


(Start cutting path id: path970)
(Change tool to Default tool)

G00 Z1.000000
G00 X35.522285 Y27.144972

G01 Z-1.000000 F8000.0(Penetrate)
G01 X36.077646 Y23.616258 Z-1.000000 F8000.000000
G00 Z1.000000

(End cutting path id: path970)


(Start cutting path id: path1924)
(Change tool to Default tool)

G00 Z1.000000
G00 X32.634387 Y32.922207

G01 Z-1.000000 F8000.0(Penetrate)
G01 X35.159457 Y31.142562 Z-1.000000 F8000.000000
G00 Z1.000000

(End cutting path id: path1924)


(Start cutting path id: path13488)
(Change tool to Default tool)

G00 Z1.000000
G00 X32.990831 Y30.025765

G01 Z-1.000000 F8000.0(Penetrate)
G02 X32.812566 Y31.473981 Z-1.000000 I9449.952823 J1163.622480 F8000.000000
G03 X32.634387 Y32.922207 Z-1.000000 I-43553.957043 J-5350.647444
G00 Z1.000000

(End cutting path id: path13488)


(Start cutting path id: path1850)
(Change tool to Default tool)

G00 Z1.000000
G00 X34.570428 Y34.314316

G01 Z-1.000000 F8000.0(Penetrate)
G02 X34.864895 Y32.728430 Z-1.000000 I-6189.197755 J-1149.693859 F8000.000000
G03 X35.159457 Y31.142562 Z-1.000000 I4218.577411 J782.589489
G00 Z1.000000

(End cutting path id: path1850)


(Start cutting path id: path13484)
(Change tool to Default tool)

G00 Z1.000000
G00 X32.634387 Y32.922207

G01 Z-1.000000 F8000.0(Penetrate)
G01 X34.570428 Y34.314316 Z-1.000000 F8000.000000
G00 Z1.000000

(End cutting path id: path13484)


(Start cutting path id: path1642)
(Change tool to Default tool)

G00 Z1.000000
G00 X27.236968 Y34.241833

G01 Z-1.000000 F8000.0(Penetrate)
G01 X30.034982 Y32.513975 Z-1.000000 F8000.000000
G00 Z1.000000

(End cutting path id: path1642)


(Start cutting path id: path1418)
(Change tool to Default tool)

G00 Z1.000000
G00 X24.184748 Y34.060316

G01 Z-1.000000 F8000.0(Penetrate)
G01 X25.706380 Y37.205508 Z-1.000000 F8000.000000
G00 Z1.000000

(End cutting path id: path1418)


(Start cutting path id: path13478)
(Change tool to Default tool)

G00 Z1.000000
G00 X25.958835 Y35.092481

G01 Z-1.000000 F8000.0(Penetrate)
G01 X24.184748 Y34.060316 Z-1.000000 F8000.000000
G00 Z1.000000

(End cutting path id: path13478)


(Start cutting path id: path1488)
(Change tool to Default tool)

G00 Z1.000000
G00 X25.958835 Y35.092481

G01 Z-1.000000 F8000.0(Penetrate)
G02 X25.832542 Y36.148986 Z-1.000000 I31137.876744 J3724.259231 F8000.000000
G02 X25.706380 Y37.205508 Z-1.000000 I4932.912211 J589.550754
G00 Z1.000000

(End cutting path id: path1488)


(Start cutting path id: path1362)
(Change tool to Default tool)

G00 Z1.000000
G00 X21.662665 Y36.948934

G01 Z-1.000000 F8000.0(Penetrate)
G03 X22.724319 Y36.818883 Z-1.000000 I13179.861220 J108412.127347 F8000.000000
G03 X23.785988 Y36.688962 Z-1.000000 I555.128729 J4530.483466
G00 Z1.000000

(End cutting path id: path1362)


(Start cutting path id: path1364)
(Change tool to Default tool)

G00 Z1.000000
G00 X18.755206 Y36.280730

G01 Z-1.000000 F8000.0(Penetrate)
G01 X21.662665 Y36.948934 Z-1.000000 F8000.000000
G00 Z1.000000

(End cutting path id: path1364)


(Start cutting path id: path13468)
(Change tool to Default tool)

G00 Z1.000000
G00 X19.474169 Y39.142785

G01 Z-1.000000 F8000.0(Penetrate)
G03 X19.114627 Y37.711772 Z-1.000000 I7875.359304 J-1978.679436 F8000.000000
G02 X18.755206 Y36.280730 Z-1.000000 R113756.032404
G00 Z1.000000

(End cutting path id: path13468)


(Start cutting path id: path13470)
(Change tool to Default tool)

G00 Z1.000000
G00 X21.662665 Y36.948934

G01 Z-1.000000 F8000.0(Penetrate)
G01 X19.474169 Y39.142785 Z-1.000000 F8000.000000
G00 Z1.000000

(End cutting path id: path13470)


(Start cutting path id: path648)
(Change tool to Default tool)

G00 Z1.000000
G00 X22.967362 Y39.448984

G01 Z-1.000000 F8000.0(Penetrate)
G03 X23.030372 Y41.044332 Z-1.000000 I-10083.515225 J396.306247 F8000.000000
G02 X23.093280 Y42.639683 Z-1.000000 R54372.201652
G00 Z1.000000

(End cutting path id: path648)


(Start cutting path id: path13464)
(Change tool to Default tool)

G00 Z1.000000
G00 X21.662665 Y36.948934

G01 Z-1.000000 F8000.0(Penetrate)
G01 X22.967362 Y39.448984 Z-1.000000 F8000.000000
G00 Z1.000000

(End cutting path id: path13464)


(Start cutting path id: path1274)
(Change tool to Default tool)

G00 Z1.000000
G00 X21.673167 Y44.377116

G01 Z-1.000000 F8000.0(Penetrate)
G03 X22.383188 Y43.508371 Z-1.000000 I4588.615542 J3748.086317 F8000.000000
G02 X23.093280 Y42.639683 Z-1.000000 R42955.731729
G00 Z1.000000

(End cutting path id: path1274)


(Start cutting path id: path13458)
(Change tool to Default tool)

G00 Z1.000000
G00 X21.577025 Y40.959167

G01 Z-1.000000 F8000.0(Penetrate)
G01 X21.673167 Y44.377116 Z-1.000000 F8000.000000
G00 Z1.000000

(End cutting path id: path13458)


(Start cutting path id: path13460)
(Change tool to Default tool)

G00 Z1.000000
G00 X21.662665 Y36.948934

G01 Z-1.000000 F8000.0(Penetrate)
G03 X21.619004 Y38.954071 Z-1.000000 I-1493.533537 J-31.517872 F8000.000000
G02 X21.577025 Y40.959167 Z-1.000000 I664.252751 J14.909897
G00 Z1.000000

(End cutting path id: path13460)


(Start cutting path id: path680)
(Change tool to Default tool)

G00 Z1.000000
G00 X24.184748 Y34.060316

G01 Z-1.000000 F8000.0(Penetrate)
G01 X23.785988 Y36.688962 Z-1.000000 F8000.000000
G00 Z1.000000

(End cutting path id: path680)


(Start cutting path id: path678)
(Change tool to Default tool)

G00 Z1.000000
G00 X23.328850 Y34.108604

G01 Z-1.000000 F8000.0(Penetrate)
G01 X24.184748 Y34.060316 Z-1.000000 F8000.000000
G00 Z1.000000

(End cutting path id: path678)


(Start cutting path id: path1698)
(Change tool to Default tool)

G00 Z1.000000
G00 X19.443281 Y30.809489

G01 Z-1.000000 F8000.0(Penetrate)
G01 X21.950127 Y31.971690 Z-1.000000 F8000.000000
G00 Z1.000000

(End cutting path id: path1698)


(Start cutting path id: path13448)
(Change tool to Default tool)

G00 Z1.000000
G00 X18.459302 Y29.267575

G01 Z-1.000000 F8000.0(Penetrate)
G02 X18.951255 Y30.038556 Z-1.000000 I15820.865655 J-10095.956760 F8000.000000
G02 X19.443281 Y30.809489 Z-1.000000 I5368.958521 J-3425.880760
G00 Z1.000000

(End cutting path id: path13448)


(Start cutting path id: path13450)
(Change tool to Default tool)

G00 Z1.000000
G00 X20.865247 Y28.556540

G01 Z-1.000000 F8000.0(Penetrate)
G01 X18.459302 Y29.267575 Z-1.000000 F8000.000000
G00 Z1.000000

(End cutting path id: path13450)


(Start cutting path id: path122)
(Change tool to Default tool)

G00 Z1.000000
G00 X19.443281 Y30.809489

G01 Z-1.000000 F8000.0(Penetrate)
G01 X20.865247 Y28.556540 Z-1.000000 F8000.000000
G00 Z1.000000

(End cutting path id: path122)


(Start cutting path id: path13442)
(Change tool to Default tool)

G00 Z1.000000
G00 X22.214113 Y31.355171

G01 Z-1.000000 F8000.0(Penetrate)
G01 X19.443281 Y30.809489 Z-1.000000 F8000.000000
G00 Z1.000000

(End cutting path id: path13442)


(Start cutting path id: path13444)
(Change tool to Default tool)

G00 Z1.000000
G00 X24.184748 Y34.060316

G01 Z-1.000000 F8000.0(Penetrate)
G01 X22.214113 Y31.355171 Z-1.000000 F8000.000000
G00 Z1.000000

(End cutting path id: path13444)


(Start cutting path id: path1408)
(Change tool to Default tool)

G00 Z1.000000
G00 X21.950127 Y31.971690

G01 Z-1.000000 F8000.0(Penetrate)
G01 X24.184748 Y34.060316 Z-1.000000 F8000.000000
G00 Z1.000000

(End cutting path id: path1408)


(Start cutting path id: path1464)
(Change tool to Default tool)

G00 Z1.000000
G00 X23.328850 Y34.108604

G01 Z-1.000000 F8000.0(Penetrate)
G01 X20.978400 Y31.871922 Z-1.000000 F8000.000000
G00 Z1.000000

(End cutting path id: path1464)


(Start cutting path id: path13434)
(Change tool to Default tool)

G00 Z1.000000
G00 X22.356918 Y34.305771

G01 Z-1.000000 F8000.0(Penetrate)
G01 X23.328850 Y34.108604 Z-1.000000 F8000.000000
G00 Z1.000000

(End cutting path id: path13434)


(Start cutting path id: path13436)
(Change tool to Default tool)

G00 Z1.000000
G00 X20.978400 Y31.871922

G01 Z-1.000000 F8000.0(Penetrate)
G01 X22.356918 Y34.305771 Z-1.000000 F8000.000000
G00 Z1.000000

(End cutting path id: path13436)


(Start cutting path id: path1632)
(Change tool to Default tool)

G00 Z1.000000
G00 X15.971916 Y31.187554

G01 Z-1.000000 F8000.0(Penetrate)
G01 X19.016310 Y30.854482 Z-1.000000 F8000.000000
G00 Z1.000000

(End cutting path id: path1632)


(Start cutting path id: path13430)
(Change tool to Default tool)

G00 Z1.000000
G00 X16.663182 Y30.708383

G01 Z-1.000000 F8000.0(Penetrate)
G01 X15.971916 Y31.187554 Z-1.000000 F8000.000000
G00 Z1.000000

(End cutting path id: path13430)


(Start cutting path id: path1566)
(Change tool to Default tool)

G00 Z1.000000
G00 X19.615429 Y26.363308

G01 Z-1.000000 F8000.0(Penetrate)
G01 X18.459302 Y29.267575 Z-1.000000 F8000.000000
G00 Z1.000000

(End cutting path id: path1566)


(Start cutting path id: path13426)
(Change tool to Default tool)

G00 Z1.000000
G00 X20.865247 Y28.556540

G01 Z-1.000000 F8000.0(Penetrate)
G01 X19.615429 Y26.363308 Z-1.000000 F8000.000000
G00 Z1.000000

(End cutting path id: path13426)


(Start cutting path id: path1752)
(Change tool to Default tool)

G00 Z1.000000
G00 X23.543005 Y29.336969

G01 Z-1.000000 F8000.0(Penetrate)
G02 X22.736535 Y27.646351 Z-1.000000 I-36450.308507 J17398.215943 F8000.000000
G03 X21.930153 Y25.955693 Z-1.000000 I11288.126820 J-5386.161560
G00 Z1.000000

(End cutting path id: path1752)


(Start cutting path id: path1756)
(Change tool to Default tool)

G00 Z1.000000
G00 X25.320180 Y26.661476

G01 Z-1.000000 F8000.0(Penetrate)
G01 X23.543005 Y29.336969 Z-1.000000 F8000.000000
G00 Z1.000000

(End cutting path id: path1756)


(Start cutting path id: path1754)
(Change tool to Default tool)

G00 Z1.000000
G00 X21.930153 Y25.955693

G01 Z-1.000000 F8000.0(Penetrate)
G01 X25.320180 Y26.661476 Z-1.000000 F8000.000000
G00 Z1.000000

(End cutting path id: path1754)


(Start cutting path id: path2076)
(Change tool to Default tool)

G00 Z1.000000
G00 X24.704177 Y17.767363

G01 Z-1.000000 F8000.0(Penetrate)
G02 X23.780230 Y18.419083 Z-1.000000 I6564.034609 J9309.399663 F8000.000000
G02 X22.856372 Y19.070928 Z-1.000000 I3754.792722 J5321.808882
G00 Z1.000000

(End cutting path id: path2076)


(Start cutting path id: path284)
(Change tool to Default tool)

G00 Z1.000000
G00 X21.934992 Y10.992353

G01 Z-1.000000 F8000.0(Penetrate)
G02 X21.572459 Y10.253965 Z-1.000000 R347781.904363 F8000.000000
G02 X21.209852 Y9.515612 Z-1.000000 I-3678.432646 J1805.874128
G00 Z1.000000

(End cutting path id: path284)


(Start cutting path id: path13414)
(Change tool to Default tool)

G00 Z1.000000
G00 X21.287791 Y10.739794

G01 Z-1.000000 F8000.0(Penetrate)
G01 X21.934992 Y10.992353 Z-1.000000 F8000.000000
G00 Z1.000000

(End cutting path id: path13414)


(Start cutting path id: path282)
(Change tool to Default tool)

G00 Z1.000000
G00 X22.890694 Y12.699840

G01 Z-1.000000 F8000.0(Penetrate)
G01 X21.287791 Y10.739794 Z-1.000000 F8000.000000
G00 Z1.000000

(End cutting path id: path282)


(Start cutting path id: path13406)
(Change tool to Default tool)

G00 Z1.000000
G00 X23.417350 Y13.178129

G01 Z-1.000000 F8000.0(Penetrate)
G02 X23.152089 Y12.940651 Z-1.000000 I-9.487266 J10.330342 F8000.000000
G03 X22.890694 Y12.699840 Z-1.000000 I4.338016 J-4.971086
G00 Z1.000000

(End cutting path id: path13406)


(Start cutting path id: path13408)
(Change tool to Default tool)

G00 Z1.000000
G00 X24.563779 Y13.932150

G01 Z-1.000000 F8000.0(Penetrate)
G02 X23.989468 Y13.556377 Z-1.000000 I-43.660063 J66.100959 F8000.000000
G03 X23.417350 Y13.178129 Z-1.000000 I20.489415 J-31.612988
G00 Z1.000000

(End cutting path id: path13408)


(Start cutting path id: path13410)
(Change tool to Default tool)

G00 Z1.000000
G00 X25.700305 Y14.963894

G01 Z-1.000000 F8000.0(Penetrate)
G03 X25.132521 Y14.447296 Z-1.000000 I126.688150 J-139.811332 F8000.000000
G02 X24.563779 Y13.932150 Z-1.000000 I-60.564353 J66.293927
G00 Z1.000000

(End cutting path id: path13410)


(Start cutting path id: path2202)
(Change tool to Default tool)

G00 Z1.000000
G00 X29.799103 Y17.905226

G01 Z-1.000000 F8000.0(Penetrate)
G01 X28.422129 Y15.860769 Z-1.000000 F8000.000000
G00 Z1.000000

(End cutting path id: path2202)


(Start cutting path id: path2086)
(Change tool to Default tool)

G00 Z1.000000
G00 X30.057942 Y20.256294

G01 Z-1.000000 F8000.0(Penetrate)
G01 X29.799103 Y17.905226 Z-1.000000 F8000.000000
G00 Z1.000000

(End cutting path id: path2086)


(Start cutting path id: path13398)
(Change tool to Default tool)

G00 Z1.000000
G00 X26.877023 Y19.370126

G01 Z-1.000000 F8000.0(Penetrate)
G03 X28.467465 Y19.813273 Z-1.000000 I-4342.960520 J15592.157372 F8000.000000
G02 X30.057942 Y20.256294 Z-1.000000 I1708.255677 J-6130.033070
G00 Z1.000000

(End cutting path id: path13398)


(Start cutting path id: path13400)
(Change tool to Default tool)

G00 Z1.000000
G00 X29.799103 Y17.905226

G01 Z-1.000000 F8000.0(Penetrate)
G02 X28.338086 Y18.637721 Z-1.000000 R26933.054208 F8000.000000
G03 X26.877023 Y19.370126 Z-1.000000 I-3970.281060 J-7908.673768
G00 Z1.000000

(End cutting path id: path13400)


(Start cutting path id: path2090)
(Change tool to Default tool)

G00 Z1.000000
G00 X34.000345 Y17.972252

G01 Z-1.000000 F8000.0(Penetrate)
G01 X31.465288 Y16.825804 Z-1.000000 F8000.000000
G00 Z1.000000

(End cutting path id: path2090)


(Start cutting path id: path13392)
(Change tool to Default tool)

G00 Z1.000000
G00 X32.048860 Y19.625876

G01 Z-1.000000 F8000.0(Penetrate)
G02 X33.024627 Y18.799093 Z-1.000000 R67903.201331 F8000.000000
G02 X34.000345 Y17.972252 Z-1.000000 I-8258.037918 J-9761.253914
G00 Z1.000000

(End cutting path id: path13392)


(Start cutting path id: path13394)
(Change tool to Default tool)

G00 Z1.000000
G00 X31.465288 Y16.825804

G01 Z-1.000000 F8000.0(Penetrate)
G01 X32.048860 Y19.625876 Z-1.000000 F8000.000000
G00 Z1.000000

(End cutting path id: path13394)


(Start cutting path id: path2232)
(Change tool to Default tool)

G00 Z1.000000
G00 X28.422129 Y15.860769

G01 Z-1.000000 F8000.0(Penetrate)
G01 X31.962169 Y14.739649 Z-1.000000 F8000.000000
G00 Z1.000000

(End cutting path id: path2232)


(Start cutting path id: path13386)
(Change tool to Default tool)

G00 Z1.000000
G00 X30.536084 Y13.932759

G01 Z-1.000000 F8000.0(Penetrate)
G01 X28.422129 Y15.860769 Z-1.000000 F8000.000000
G00 Z1.000000

(End cutting path id: path13386)


(Start cutting path id: path13388)
(Change tool to Default tool)

G00 Z1.000000
G00 X31.962169 Y14.739649

G01 Z-1.000000 F8000.0(Penetrate)
G03 X31.249098 Y14.336251 Z-1.000000 R326455.995273 F8000.000000
G03 X30.536084 Y13.932759 Z-1.000000 I1521.686824 J-2689.448388
G00 Z1.000000

(End cutting path id: path13388)


(Start cutting path id: path2234)
(Change tool to Default tool)

G00 Z1.000000
G00 X34.736913 Y15.454390

G01 Z-1.000000 F8000.0(Penetrate)
G01 X31.962169 Y14.739649 Z-1.000000 F8000.000000
G00 Z1.000000

(End cutting path id: path2234)


(Start cutting path id: path13380)
(Change tool to Default tool)

G00 Z1.000000
G00 X31.465288 Y16.825804

G01 Z-1.000000 F8000.0(Penetrate)
G01 X34.736913 Y15.454390 Z-1.000000 F8000.000000
G00 Z1.000000

(End cutting path id: path13380)


(Start cutting path id: path13382)
(Change tool to Default tool)

G00 Z1.000000
G00 X31.962169 Y14.739649

G01 Z-1.000000 F8000.0(Penetrate)
G01 X31.465288 Y16.825804 Z-1.000000 F8000.000000
G00 Z1.000000

(End cutting path id: path13382)


(Start cutting path id: path2200)
(Change tool to Default tool)

G00 Z1.000000
G00 X28.274692 Y14.704539

G01 Z-1.000000 F8000.0(Penetrate)
G01 X30.545761 Y12.164233 Z-1.000000 F8000.000000
G00 Z1.000000

(End cutting path id: path2200)


(Start cutting path id: path13376)
(Change tool to Default tool)

G00 Z1.000000
G00 X30.536084 Y13.932759

G01 Z-1.000000 F8000.0(Penetrate)
G01 X28.274692 Y14.704539 Z-1.000000 F8000.000000
G00 Z1.000000

(End cutting path id: path13376)


(Start cutting path id: path528)
(Change tool to Default tool)

G00 Z1.000000
G00 X30.545761 Y12.164233

G01 Z-1.000000 F8000.0(Penetrate)
G03 X31.610724 Y11.920041 Z-1.000000 R12533.532941 F8000.000000
G02 X32.675674 Y11.675795 Z-1.000000 I-1295.279982 J-5631.427675
G00 Z1.000000

(End cutting path id: path528)


(Start cutting path id: path2168)
(Change tool to Default tool)

G00 Z1.000000
G00 X28.936821 Y12.777147

G01 Z-1.000000 F8000.0(Penetrate)
G02 X29.741315 Y12.470753 Z-1.000000 I-7876.215589 J-20700.620876 F8000.000000
G02 X30.545761 Y12.164233 Z-1.000000 I-1102.852794 J-2895.211249
G00 Z1.000000

(End cutting path id: path2168)


(Start cutting path id: path1126)
(Change tool to Default tool)

G00 Z1.000000
G00 X25.550809 Y11.614637

G01 Z-1.000000 F8000.0(Penetrate)
G02 X26.887834 Y11.606879 Z-1.000000 I-137.577420 J-21984.862326 F8000.000000
G03 X28.224859 Y11.599193 Z-1.000000 I47.811844 J7957.287786
G00 Z1.000000

(End cutting path id: path1126)


(Start cutting path id: path13368)
(Change tool to Default tool)

G00 Z1.000000
G00 X27.143584 Y13.685554

G01 Z-1.000000 F8000.0(Penetrate)
G03 X26.347253 Y12.650053 Z-1.000000 I21791.778393 J-16736.254144 F8000.000000
G02 X25.550809 Y11.614637 Z-1.000000 I-3930.901395 J3022.080474
G00 Z1.000000

(End cutting path id: path13368)


(Start cutting path id: path2198)
(Change tool to Default tool)

G00 Z1.000000
G00 X27.143584 Y13.685554

G01 Z-1.000000 F8000.0(Penetrate)
G01 X28.035209 Y13.841435 Z-1.000000 F8000.000000
G00 Z1.000000

(End cutting path id: path2198)


(Start cutting path id: path2050)
(Change tool to Default tool)

G00 Z1.000000
G00 X25.242034 Y13.550472

G01 Z-1.000000 F8000.0(Penetrate)
G02 X26.192807 Y13.618045 Z-1.000000 R20403.276603 F8000.000000
G02 X27.143584 Y13.685554 Z-1.000000 I781.695736 J-10894.735492
G00 Z1.000000

(End cutting path id: path2050)


(Start cutting path id: path13362)
(Change tool to Default tool)

G00 Z1.000000
G00 X25.916004 Y14.915709

G01 Z-1.000000 F8000.0(Penetrate)
G01 X25.242034 Y13.550472 Z-1.000000 F8000.000000
G00 Z1.000000

(End cutting path id: path13362)


(Start cutting path id: path2126)
(Change tool to Default tool)

G00 Z1.000000
G00 X28.422129 Y15.860769

G01 Z-1.000000 F8000.0(Penetrate)
G03 X27.332992 Y15.593427 Z-1.000000 I19792.970351 J-80574.336521 F8000.000000
G02 X26.243826 Y15.326206 Z-1.000000 I-1135.178541 J4624.315260
G00 Z1.000000

(End cutting path id: path2126)


(Start cutting path id: path2206)
(Change tool to Default tool)

G00 Z1.000000
G00 X27.022505 Y17.565256

G01 Z-1.000000 F8000.0(Penetrate)
G03 X27.722282 Y16.712984 Z-1.000000 R139069.523182 F8000.000000
G03 X28.422129 Y15.860769 Z-1.000000 I5485.861431 J4508.067964
G00 Z1.000000

(End cutting path id: path2206)


(Start cutting path id: path13354)
(Change tool to Default tool)

G00 Z1.000000
G00 X29.799103 Y17.905226

G01 Z-1.000000 F8000.0(Penetrate)
G01 X27.022505 Y17.565256 Z-1.000000 F8000.000000
G00 Z1.000000

(End cutting path id: path13354)


(Start cutting path id: path13356)
(Change tool to Default tool)

G00 Z1.000000
G00 X31.465288 Y16.825804

G01 Z-1.000000 F8000.0(Penetrate)
G01 X29.799103 Y17.905226 Z-1.000000 F8000.000000
G00 Z1.000000

(End cutting path id: path13356)


(Start cutting path id: path2204)
(Change tool to Default tool)

G00 Z1.000000
G00 X28.422129 Y15.860769

G01 Z-1.000000 F8000.0(Penetrate)
G01 X31.465288 Y16.825804 Z-1.000000 F8000.000000
G00 Z1.000000

(End cutting path id: path2204)


(Start cutting path id: path1160)
(Change tool to Default tool)

G00 Z1.000000
G00 X24.704177 Y17.767363

G01 Z-1.000000 F8000.0(Penetrate)
G01 X27.022505 Y17.565256 Z-1.000000 F8000.000000
G00 Z1.000000

(End cutting path id: path1160)


(Start cutting path id: path1474)
(Change tool to Default tool)

G00 Z1.000000
G00 X19.398185 Y17.505127

G01 Z-1.000000 F8000.0(Penetrate)
G01 X20.099850 Y17.713310 Z-1.000000 F8000.000000
G00 Z1.000000

(End cutting path id: path1474)


(Start cutting path id: path13344)
(Change tool to Default tool)

G00 Z1.000000
G00 X17.272848 Y19.337215

G01 Z-1.000000 F8000.0(Penetrate)
G02 X18.335489 Y18.421140 Z-1.000000 I-4905.874730 J-5692.063598 F8000.000000
G03 X19.398185 Y17.505127 Z-1.000000 I3009.116596 J3489.974503
G00 Z1.000000

(End cutting path id: path13344)


(Start cutting path id: path13346)
(Change tool to Default tool)

G00 Z1.000000
G00 X17.286598 Y19.480499

G01 Z-1.000000 F8000.0(Penetrate)
G02 X17.258808 Y19.407511 Z-1.000000 I-0.131262 J0.008194 F8000.000000
G01 X17.272848 Y19.337215 Z-1.000000
G00 Z1.000000

(End cutting path id: path13346)


(Start cutting path id: path1040)
(Change tool to Default tool)

G00 Z1.000000
G00 X21.616334 Y16.610105

G01 Z-1.000000 F8000.0(Penetrate)
G02 X20.507224 Y17.057529 Z-1.000000 I6341.879143 J15720.539737 F8000.000000
G02 X19.398185 Y17.505127 Z-1.000000 I1834.143544 J4546.308553
G00 Z1.000000

(End cutting path id: path1040)


(Start cutting path id: path2082)
(Change tool to Default tool)

G00 Z1.000000
G00 X20.099850 Y17.713310

G01 Z-1.000000 F8000.0(Penetrate)
G01 X22.647880 Y17.133446 Z-1.000000 F8000.000000
G00 Z1.000000

(End cutting path id: path2082)


(Start cutting path id: path13338)
(Change tool to Default tool)

G00 Z1.000000
G00 X21.616334 Y16.610105

G01 Z-1.000000 F8000.0(Penetrate)
G03 X20.858116 Y17.161740 Z-1.000000 I-10775.552022 J-14816.111712 F8000.000000
G03 X20.099850 Y17.713310 Z-1.000000 I-4507.139102 J-6194.302229
G00 Z1.000000

(End cutting path id: path13338)


(Start cutting path id: path1044)
(Change tool to Default tool)

G00 Z1.000000
G00 X21.360686 Y16.349000

G01 Z-1.000000 F8000.0(Penetrate)
G01 X21.616334 Y16.610105 Z-1.000000 F8000.000000
G00 Z1.000000

(End cutting path id: path1044)


(Start cutting path id: path1042)
(Change tool to Default tool)

G00 Z1.000000
G00 X19.398185 Y17.505127

G01 Z-1.000000 F8000.0(Penetrate)
G01 X21.360686 Y16.349000 Z-1.000000 F8000.000000
G00 Z1.000000

(End cutting path id: path1042)


(Start cutting path id: path1974)
(Change tool to Default tool)

G00 Z1.000000
G00 X17.286598 Y19.480499

G01 Z-1.000000 F8000.0(Penetrate)
G03 X18.693253 Y18.596949 Z-1.000000 I8010.534019 J12738.019667 F8000.000000
G02 X20.099850 Y17.713310 Z-1.000000 I-3693.523865 J-5878.102993
G00 Z1.000000

(End cutting path id: path1974)


(Start cutting path id: path13330)
(Change tool to Default tool)

G00 Z1.000000
G00 X16.801559 Y20.975360

G01 Z-1.000000 F8000.0(Penetrate)
G02 X17.044052 Y20.227921 Z-1.000000 I-55835.367571 J-18174.819412 F8000.000000
G03 X17.286598 Y19.480499 Z-1.000000 I4840.760788 J1570.910063
G00 Z1.000000

(End cutting path id: path13330)


(Start cutting path id: path1874)
(Change tool to Default tool)

G00 Z1.000000
G00 X13.956699 Y24.441990

G01 Z-1.000000 F8000.0(Penetrate)
G03 X14.690007 Y23.083052 Z-1.000000 R16110.360357 F8000.000000
G02 X15.423247 Y21.724078 Z-1.000000 R7840.471519
G00 Z1.000000

(End cutting path id: path1874)


(Start cutting path id: path1878)
(Change tool to Default tool)

G00 Z1.000000
G00 X15.433852 Y22.487313

G01 Z-1.000000 F8000.0(Penetrate)
G01 X13.956699 Y24.441990 Z-1.000000 F8000.000000
G00 Z1.000000

(End cutting path id: path1878)


(Start cutting path id: path1916)
(Change tool to Default tool)

G00 Z1.000000
G00 X16.764082 Y23.153767

G01 Z-1.000000 F8000.0(Penetrate)
G02 X16.098951 Y22.820571 Z-1.000000 I-7586.308103 J15128.628129 F8000.000000
G03 X15.433852 Y22.487313 Z-1.000000 I1452.929291 J-2899.984267
G00 Z1.000000

(End cutting path id: path1916)


(Start cutting path id: path13322)
(Change tool to Default tool)

G00 Z1.000000
G00 X16.801559 Y20.975360

G01 Z-1.000000 F8000.0(Penetrate)
G01 X16.764082 Y23.153767 Z-1.000000 F8000.000000
G00 Z1.000000

(End cutting path id: path13322)


(Start cutting path id: path1918)
(Change tool to Default tool)

G00 Z1.000000
G00 X15.433852 Y22.487313

G01 Z-1.000000 F8000.0(Penetrate)
G02 X16.117728 Y21.731357 Z-1.000000 R17288.487632 F8000.000000
G02 X16.801559 Y20.975360 Z-1.000000 R16520.289729
G00 Z1.000000

(End cutting path id: path1918)


(Start cutting path id: path13318)
(Change tool to Default tool)

G00 Z1.000000
G00 X17.286598 Y19.480499

G01 Z-1.000000 F8000.0(Penetrate)
G01 X15.433852 Y22.487313 Z-1.000000 F8000.000000
G00 Z1.000000

(End cutting path id: path13318)


(Start cutting path id: path1472)
(Change tool to Default tool)

G00 Z1.000000
G00 X19.398185 Y17.505127

G01 Z-1.000000 F8000.0(Penetrate)
G02 X18.342347 Y18.492765 Z-1.000000 I11672.620528 J12465.898778 F8000.000000
G02 X17.286598 Y19.480499 Z-1.000000 I10130.680933 J10839.758859
G00 Z1.000000

(End cutting path id: path1472)


(Start cutting path id: path1108)
(Change tool to Default tool)

G00 Z1.000000
G00 X21.360686 Y16.349000

G01 Z-1.000000 F8000.0(Penetrate)
G01 X20.319462 Y16.896948 Z-1.000000 F8000.000000
G00 Z1.000000

(End cutting path id: path1108)


(Start cutting path id: path1110)
(Change tool to Default tool)

G00 Z1.000000
G00 X22.300187 Y15.821851

G01 Z-1.000000 F8000.0(Penetrate)
G02 X21.830456 Y16.085461 Z-1.000000 I1004.699850 J1790.604130 F8000.000000
G03 X21.360686 Y16.349000 Z-1.000000 I-470.230770 J-837.602755
G00 Z1.000000

(End cutting path id: path1110)


(Start cutting path id: path80)
(Change tool to Default tool)

G00 Z1.000000
G00 X25.925270 Y14.929196

G01 Z-1.000000 F8000.0(Penetrate)
G03 X24.845659 Y15.157482 Z-1.000000 I-621.466531 J-2937.200814 F8000.000000
G02 X23.766014 Y15.385613 Z-1.000000 I2781.184080 J13181.269199
G00 Z1.000000

(End cutting path id: path80)


(Start cutting path id: path1256)
(Change tool to Default tool)

G00 Z1.000000
G00 X27.407365 Y14.582739

G01 Z-1.000000 F8000.0(Penetrate)
G01 X25.925270 Y14.929196 Z-1.000000 F8000.000000
G00 Z1.000000

(End cutting path id: path1256)


(Start cutting path id: path2292)
(Change tool to Default tool)

G00 Z1.000000
G00 X27.143584 Y13.685554

G01 Z-1.000000 F8000.0(Penetrate)
G01 X27.370300 Y14.590976 Z-1.000000 F8000.000000
G00 Z1.000000

(End cutting path id: path2292)


(Start cutting path id: path13304)
(Change tool to Default tool)

G00 Z1.000000
G00 X26.910897 Y14.693626

G01 Z-1.000000 F8000.0(Penetrate)
G01 X27.143584 Y13.685554 Z-1.000000 F8000.000000
G00 Z1.000000

(End cutting path id: path13304)


(Start cutting path id: path2052)
(Change tool to Default tool)

G00 Z1.000000
G00 X27.143584 Y13.685554

G01 Z-1.000000 F8000.0(Penetrate)
G01 X26.751723 Y14.729147 Z-1.000000 F8000.000000
G00 Z1.000000

(End cutting path id: path2052)


(Start cutting path id: path1124)
(Change tool to Default tool)

G00 Z1.000000
G00 X28.224859 Y11.599193

G01 Z-1.000000 F8000.0(Penetrate)
G02 X27.684155 Y12.642340 Z-1.000000 I15391.301214 J7980.000843 F8000.000000
G02 X27.143584 Y13.685554 Z-1.000000 I5583.365717 J2893.653375
G00 Z1.000000

(End cutting path id: path1124)


(Start cutting path id: path264)
(Change tool to Default tool)

G00 Z1.000000
G00 X30.545761 Y12.164233

G01 Z-1.000000 F8000.0(Penetrate)
G02 X30.163196 Y11.028121 Z-1.000000 I-8339.279498 J2810.845331 F8000.000000
G03 X29.780570 Y9.892030 Z-1.000000 R43195.041719
G00 Z1.000000

(End cutting path id: path264)


(Start cutting path id: path526)
(Change tool to Default tool)

G00 Z1.000000
G00 X30.536084 Y13.932759

G01 Z-1.000000 F8000.0(Penetrate)
G01 X30.545761 Y12.164233 Z-1.000000 F8000.000000
G00 Z1.000000

(End cutting path id: path526)


(Start cutting path id: path530)
(Change tool to Default tool)

G00 Z1.000000
G00 X32.675674 Y11.675795

G01 Z-1.000000 F8000.0(Penetrate)
G01 X30.536084 Y13.932759 Z-1.000000 F8000.000000
G00 Z1.000000

(End cutting path id: path530)


(Start cutting path id: path2250)
(Change tool to Default tool)

G00 Z1.000000
G00 X35.703236 Y11.089222

G01 Z-1.000000 F8000.0(Penetrate)
G01 X38.054458 Y10.717864 Z-1.000000 F8000.000000
G00 Z1.000000

(End cutting path id: path2250)


(Start cutting path id: path13284)
(Change tool to Default tool)

G00 Z1.000000
G00 X32.675674 Y11.675795

G01 Z-1.000000 F8000.0(Penetrate)
G02 X34.189269 Y11.381349 Z-1.000000 I-107.362564 J-555.934197 F8000.000000
G03 X35.703236 Y11.089222 Z-1.000000 I51.416635 J262.400228
G00 Z1.000000

(End cutting path id: path13284)


(Start cutting path id: path13286)
(Change tool to Default tool)

G00 Z1.000000
G00 X34.450584 Y13.121648

G01 Z-1.000000 F8000.0(Penetrate)
G01 X32.675674 Y11.675795 Z-1.000000 F8000.000000
G00 Z1.000000

(End cutting path id: path13286)


(Start cutting path id: path13288)
(Change tool to Default tool)

G00 Z1.000000
G00 X31.962169 Y14.739649

G01 Z-1.000000 F8000.0(Penetrate)
G01 X34.450584 Y13.121648 Z-1.000000 F8000.000000
G00 Z1.000000

(End cutting path id: path13288)


(Start cutting path id: path13290)
(Change tool to Default tool)

G00 Z1.000000
G00 X32.675674 Y11.675795

G01 Z-1.000000 F8000.0(Penetrate)
G01 X31.962169 Y14.739649 Z-1.000000 F8000.000000
G00 Z1.000000

(End cutting path id: path13290)


(Start cutting path id: path2222)
(Change tool to Default tool)

G00 Z1.000000
G00 X34.450584 Y13.121648

G01 Z-1.000000 F8000.0(Penetrate)
G03 X35.734953 Y12.898472 Z-1.000000 I2120.051851 J12237.059184 F8000.000000
G02 X37.019308 Y12.675217 Z-1.000000 I-973.077357 J-5610.193624
G00 Z1.000000

(End cutting path id: path2222)


(Start cutting path id: path2238)
(Change tool to Default tool)

G00 Z1.000000
G00 X35.650983 Y11.097474

G01 Z-1.000000 F8000.0(Penetrate)
G01 X37.019308 Y12.675217 Z-1.000000 F8000.000000
G00 Z1.000000

(End cutting path id: path2238)


(Start cutting path id: path2236)
(Change tool to Default tool)

G00 Z1.000000
G00 X34.450584 Y13.121648

G01 Z-1.000000 F8000.0(Penetrate)
G03 X35.050819 Y12.109583 Z-1.000000 I9508.824741 J5638.874914 F8000.000000
G02 X35.650983 Y11.097474 Z-1.000000 I-4111.803630 J-2438.933702
G00 Z1.000000

(End cutting path id: path2236)


(Start cutting path id: path2208)
(Change tool to Default tool)

G00 Z1.000000
G00 X37.377915 Y16.603722

G01 Z-1.000000 F8000.0(Penetrate)
G02 X37.031009 Y15.600192 Z-1.000000 I-7641.950838 J2644.592624 F8000.000000
G03 X36.684177 Y14.596639 Z-1.000000 I3627.554436 J-1255.035287
G00 Z1.000000

(End cutting path id: path2208)


(Start cutting path id: path13274)
(Change tool to Default tool)

G00 Z1.000000
G00 X34.736913 Y15.454390

G01 Z-1.000000 F8000.0(Penetrate)
G02 X36.057396 Y16.029096 Z-1.000000 I2690.489910 J-6185.900293 F8000.000000
G03 X37.377915 Y16.603722 Z-1.000000 R15898.464088
G00 Z1.000000

(End cutting path id: path13274)


(Start cutting path id: path2002)
(Change tool to Default tool)

G00 Z1.000000
G00 X36.157993 Y17.496242

G01 Z-1.000000 F8000.0(Penetrate)
G01 X38.442201 Y19.717716 Z-1.000000 F8000.000000
G00 Z1.000000

(End cutting path id: path2002)


(Start cutting path id: path13270)
(Change tool to Default tool)

G00 Z1.000000
G00 X34.736913 Y15.454390

G01 Z-1.000000 F8000.0(Penetrate)
G03 X35.446714 Y16.476073 Z-1.000000 I-349.638606 J243.664279 F8000.000000
G02 X36.157993 Y17.496242 Z-1.000000 I163.293312 J-113.092891
G00 Z1.000000

(End cutting path id: path13270)


(Start cutting path id: path2004)
(Change tool to Default tool)

G00 Z1.000000
G00 X34.000345 Y17.972252

G01 Z-1.000000 F8000.0(Penetrate)
G02 X34.368666 Y16.713331 Z-1.000000 R27094.122042 F8000.000000
G02 X34.736913 Y15.454390 Z-1.000000 R19111.112398
G00 Z1.000000

(End cutting path id: path2004)


(Start cutting path id: path2000)
(Change tool to Default tool)

G00 Z1.000000
G00 X35.783183 Y19.761577

G01 Z-1.000000 F8000.0(Penetrate)
G03 X34.891733 Y18.866944 Z-1.000000 I11997.520340 J-11952.059262 F8000.000000
G03 X34.000345 Y17.972252 Z-1.000000 I14518.109650 J-14470.770520
G00 Z1.000000

(End cutting path id: path2000)


(Start cutting path id: path13264)
(Change tool to Default tool)

G00 Z1.000000
G00 X38.442201 Y19.717716

G01 Z-1.000000 F8000.0(Penetrate)
G01 X35.783183 Y19.761577 Z-1.000000 F8000.000000
G00 Z1.000000

(End cutting path id: path13264)


(Start cutting path id: path2032)
(Change tool to Default tool)

G00 Z1.000000
G00 X44.471275 Y25.407745

G01 Z-1.000000 F8000.0(Penetrate)
G01 X44.259385 Y22.975442 Z-1.000000 F8000.000000
G00 Z1.000000

(End cutting path id: path2032)


(Start cutting path id: path13258)
(Change tool to Default tool)

G00 Z1.000000
G00 X41.596351 Y23.702435

G01 Z-1.000000 F8000.0(Penetrate)
G03 X43.033848 Y24.555029 Z-1.000000 I-9888.612867 J16679.320095 F8000.000000
G03 X44.471275 Y25.407745 Z-1.000000 I-10308.535715 J17373.128640
G00 Z1.000000

(End cutting path id: path13258)


(Start cutting path id: path13260)
(Change tool to Default tool)

G00 Z1.000000
G00 X44.259385 Y22.975442

G01 Z-1.000000 F8000.0(Penetrate)
G02 X42.927857 Y23.338899 Z-1.000000 I2478.245647 J9090.772426 F8000.000000
G03 X41.596351 Y23.702435 Z-1.000000 R49485.280759
G00 Z1.000000

(End cutting path id: path13260)


(Start cutting path id: path1814)
(Change tool to Default tool)

G00 Z1.000000
G00 X45.699678 Y18.828459

G01 Z-1.000000 F8000.0(Penetrate)
G03 X46.840549 Y18.468247 Z-1.000000 I5703.286271 J18038.484820 F8000.000000
G03 X47.981456 Y18.108158 Z-1.000000 I2388.185357 J7568.807096
G00 Z1.000000

(End cutting path id: path1814)


(Start cutting path id: path1550)
(Change tool to Default tool)

G00 Z1.000000
G00 X53.646157 Y14.482148

G01 Z-1.000000 F8000.0(Penetrate)
G01 X52.231088 Y17.002996 Z-1.000000 F8000.000000
G00 Z1.000000

(End cutting path id: path1550)


(Start cutting path id: path1156)
(Change tool to Default tool)

G00 Z1.000000
G00 X57.250648 Y14.200452

G01 Z-1.000000 F8000.0(Penetrate)
G01 X55.834447 Y15.414956 Z-1.000000 F8000.000000
G00 Z1.000000

(End cutting path id: path1156)


(Start cutting path id: path1272)
(Change tool to Default tool)

G00 Z1.000000
G00 X58.668702 Y12.659877

G01 Z-1.000000 F8000.0(Penetrate)
G03 X58.085077 Y12.730892 Z-1.000000 I-524.539628 J-4303.230676 F8000.000000
G02 X57.501456 Y12.801960 Z-1.000000 I226.144847 J1858.611381
G00 Z1.000000

(End cutting path id: path1272)


(Start cutting path id: path632)
(Change tool to Default tool)

G00 Z1.000000
G00 X64.090318 Y12.043255

G01 Z-1.000000 F8000.0(Penetrate)
G02 X63.577132 Y12.269899 Z-1.000000 I1144.461764 J2591.057685 F8000.000000
G03 X63.063920 Y12.496481 Z-1.000000 I-518.465697 J-1173.429354
G00 Z1.000000

(End cutting path id: path632)


(Start cutting path id: path1870)
(Change tool to Default tool)

G00 Z1.000000
G00 X66.155263 Y13.637885

G01 Z-1.000000 F8000.0(Penetrate)
G01 X65.973952 Y13.414258 Z-1.000000 F8000.000000
G00 Z1.000000

(End cutting path id: path1870)


(Start cutting path id: path13244)
(Change tool to Default tool)

G00 Z1.000000
G00 X64.090318 Y12.043255

G01 Z-1.000000 F8000.0(Penetrate)
G02 X65.122770 Y12.840597 Z-1.000000 R17609.578375 F8000.000000
G02 X66.155263 Y13.637885 Z-1.000000 R40727.543994
G00 Z1.000000

(End cutting path id: path13244)


(Start cutting path id: path634)
(Change tool to Default tool)

G00 Z1.000000
G00 X63.063920 Y12.496481

G01 Z-1.000000 F8000.0(Penetrate)
G03 X62.416521 Y11.723090 Z-1.000000 I7503.721237 J-6283.614330 F8000.000000
G03 X61.769210 Y10.949625 Z-1.000000 I6231.460482 J-5214.611580
G00 Z1.000000

(End cutting path id: path634)


(Start cutting path id: path876)
(Change tool to Default tool)

G00 Z1.000000
G00 X67.681322 Y22.315475

G01 Z-1.000000 F8000.0(Penetrate)
G01 X66.671808 Y20.443268 Z-1.000000 F8000.000000
G00 Z1.000000

(End cutting path id: path876)


(Start cutting path id: path2160)
(Change tool to Default tool)

G00 Z1.000000
G00 X66.671808 Y20.443268

G01 Z-1.000000 F8000.0(Penetrate)
G01 X65.033422 Y21.910948 Z-1.000000 F8000.000000
G00 Z1.000000

(End cutting path id: path2160)


(Start cutting path id: path1702)
(Change tool to Default tool)

G00 Z1.000000
G00 X64.865084 Y21.713988

G01 Z-1.000000 F8000.0(Penetrate)
G01 X65.033422 Y21.910948 Z-1.000000 F8000.000000
G00 Z1.000000

(End cutting path id: path1702)


(Start cutting path id: path1748)
(Change tool to Default tool)

G00 Z1.000000
G00 X64.865084 Y21.713988

G01 Z-1.000000 F8000.0(Penetrate)
G01 X64.722589 Y20.164970 Z-1.000000 F8000.000000
G00 Z1.000000

(End cutting path id: path1748)


(Start cutting path id: path13232)
(Change tool to Default tool)

G00 Z1.000000
G00 X63.931966 Y19.775888

G01 Z-1.000000 F8000.0(Penetrate)
G01 X64.865084 Y21.713988 Z-1.000000 F8000.000000
G00 Z1.000000

(End cutting path id: path13232)


(Start cutting path id: path872)
(Change tool to Default tool)

G00 Z1.000000
G00 X62.713138 Y13.919374

G01 Z-1.000000 F8000.0(Penetrate)
G01 X63.896343 Y16.476361 Z-1.000000 F8000.000000
G00 Z1.000000

(End cutting path id: path872)


(Start cutting path id: path2184)
(Change tool to Default tool)

G00 Z1.000000
G00 X60.080888 Y13.413846

G01 Z-1.000000 F8000.0(Penetrate)
G03 X60.379850 Y14.549389 Z-1.000000 I-7996.106727 J2102.405537 F8000.000000
G02 X60.678874 Y15.684915 Z-1.000000 I4531.688295 J-1191.655224
G00 Z1.000000

(End cutting path id: path2184)


(Start cutting path id: path2228)
(Change tool to Default tool)

G00 Z1.000000
G00 X63.093469 Y15.735468

G01 Z-1.000000 F8000.0(Penetrate)
G03 X62.231164 Y14.753163 Z-1.000000 R20602.767485 F8000.000000
G02 X61.368803 Y13.770907 Z-1.000000 I-5495.970406 J4820.566313
G00 Z1.000000

(End cutting path id: path2228)


(Start cutting path id: path13222)
(Change tool to Default tool)

G00 Z1.000000
G00 X61.991601 Y16.424778

G01 Z-1.000000 F8000.0(Penetrate)
G02 X62.542525 Y16.080107 Z-1.000000 I-5495.596868 J-8756.456420 F8000.000000
G03 X63.093469 Y15.735468 Z-1.000000 I1919.043363 J3063.726430
G00 Z1.000000

(End cutting path id: path13222)


(Start cutting path id: path13224)
(Change tool to Default tool)

G00 Z1.000000
G00 X61.368803 Y13.770907

G01 Z-1.000000 F8000.0(Penetrate)
G02 X61.680255 Y15.097831 Z-1.000000 R63240.759413 F8000.000000
G03 X61.991601 Y16.424778 Z-1.000000 I-7339.067478 J1724.240595
G00 Z1.000000

(End cutting path id: path13224)


(Start cutting path id: path2186)
(Change tool to Default tool)

G00 Z1.000000
G00 X62.624593 Y14.109642

G01 Z-1.000000 F8000.0(Penetrate)
G03 X61.996711 Y13.940227 Z-1.000000 I1042.717900 J-3866.321463 F8000.000000
G02 X61.368803 Y13.770907 Z-1.000000 I-364.988911 J1352.349275
G00 Z1.000000

(End cutting path id: path2186)


(Start cutting path id: path13218)
(Change tool to Default tool)

G00 Z1.000000
G00 X63.093469 Y15.735468

G01 Z-1.000000 F8000.0(Penetrate)
G01 X62.624593 Y14.109642 Z-1.000000 F8000.000000
G00 Z1.000000

(End cutting path id: path13218)


(Start cutting path id: path2176)
(Change tool to Default tool)

G00 Z1.000000
G00 X63.009454 Y17.977091

G01 Z-1.000000 F8000.0(Penetrate)
G02 X63.051495 Y16.856281 Z-1.000000 I-8439.358223 J-318.311842 F8000.000000
G03 X63.093469 Y15.735468 Z-1.000000 R88364.099257
G00 Z1.000000

(End cutting path id: path2176)


(Start cutting path id: path13214)
(Change tool to Default tool)

G00 Z1.000000
G00 X61.991601 Y16.424778

G01 Z-1.000000 F8000.0(Penetrate)
G03 X62.500586 Y17.200897 Z-1.000000 I-9150.737947 J6004.385899 F8000.000000
G03 X63.009454 Y17.977091 Z-1.000000 I-3645.981542 J2390.411254
G00 Z1.000000

(End cutting path id: path13214)


(Start cutting path id: path2172)
(Change tool to Default tool)

G00 Z1.000000
G00 X57.250648 Y14.200452

G01 Z-1.000000 F8000.0(Penetrate)
G01 X59.668228 Y16.298344 Z-1.000000 F8000.000000
G00 Z1.000000

(End cutting path id: path2172)


(Start cutting path id: path2180)
(Change tool to Default tool)

G00 Z1.000000
G00 X56.140853 Y12.444898

G01 Z-1.000000 F8000.0(Penetrate)
G01 X57.250648 Y14.200452 Z-1.000000 F8000.000000
G00 Z1.000000

(End cutting path id: path2180)


(Start cutting path id: path13208)
(Change tool to Default tool)

G00 Z1.000000
G00 X57.501456 Y12.801960

G01 Z-1.000000 F8000.0(Penetrate)
G02 X56.821146 Y12.623464 Z-1.000000 I-2450.407775 J9330.585416 F8000.000000
G03 X56.140853 Y12.444898 Z-1.000000 I650.047664 J-2477.399609
G00 Z1.000000

(End cutting path id: path13208)


(Start cutting path id: path1268)
(Change tool to Default tool)

G00 Z1.000000
G00 X57.501456 Y12.801960

G01 Z-1.000000 F8000.0(Penetrate)
G03 X57.525666 Y11.905752 Z-1.000000 I27946.080233 J756.947334 F8000.000000
G03 X57.549950 Y11.009547 Z-1.000000 I6671.132566 J180.175355
G00 Z1.000000

(End cutting path id: path1268)


(Start cutting path id: path2248)
(Change tool to Default tool)

G00 Z1.000000
G00 X59.174849 Y14.420476

G01 Z-1.000000 F8000.0(Penetrate)
G01 X57.501456 Y12.801960 Z-1.000000 F8000.000000
G00 Z1.000000

(End cutting path id: path2248)


(Start cutting path id: path13200)
(Change tool to Default tool)

G00 Z1.000000
G00 X57.250648 Y14.200452

G01 Z-1.000000 F8000.0(Penetrate)
G01 X59.174849 Y14.420476 Z-1.000000 F8000.000000
G00 Z1.000000

(End cutting path id: path13200)


(Start cutting path id: path13202)
(Change tool to Default tool)

G00 Z1.000000
G00 X57.501456 Y12.801960

G01 Z-1.000000 F8000.0(Penetrate)
G03 X57.376073 Y13.501210 Z-1.000000 I-6004.441688 J-1077.567075 F8000.000000
G03 X57.250648 Y14.200452 Z-1.000000 R383628.250106
G00 Z1.000000

(End cutting path id: path13202)


(Start cutting path id: path2268)
(Change tool to Default tool)

G00 Z1.000000
G00 X55.920624 Y9.773730

G01 Z-1.000000 F8000.0(Penetrate)
G02 X54.986869 Y9.054177 Z-1.000000 I-8300.371512 J10780.506366 F8000.000000
G03 X54.053153 Y8.334569 Z-1.000000 I3585.580339 J-4655.277693
G00 Z1.000000

(End cutting path id: path2268)


(Start cutting path id: path13196)
(Change tool to Default tool)

G00 Z1.000000
G00 X54.942514 Y10.576605

G01 Z-1.000000 F8000.0(Penetrate)
G01 X55.920624 Y9.773730 Z-1.000000 F8000.000000
G00 Z1.000000

(End cutting path id: path13196)


(Start cutting path id: path2242)
(Change tool to Default tool)

G00 Z1.000000
G00 X57.501456 Y12.801960

G01 Z-1.000000 F8000.0(Penetrate)
G01 X55.920624 Y9.773730 Z-1.000000 F8000.000000
G00 Z1.000000

(End cutting path id: path2242)


(Start cutting path id: path2178)
(Change tool to Default tool)

G00 Z1.000000
G00 X54.942514 Y10.576605

G01 Z-1.000000 F8000.0(Penetrate)
G02 X56.222015 Y11.689247 Z-1.000000 R18869.775793 F8000.000000
G03 X57.501456 Y12.801960 Z-1.000000 I-5581.774477 J6413.722419
G00 Z1.000000

(End cutting path id: path2178)


(Start cutting path id: path1086)
(Change tool to Default tool)

G00 Z1.000000
G00 X56.140853 Y12.444898

G01 Z-1.000000 F8000.0(Penetrate)
G01 X54.654126 Y12.101118 Z-1.000000 F8000.000000
G00 Z1.000000

