
%
(Header)
(Generated by gcodetools from Inkscape.)
(Using default header. To add your own header create file "header" in the output dir.)
M3
(Header end.)
G21 (All units in mm)

(Start cutting path id: path760)
(Change tool to Default tool)

G00 Z1.000000
G00 X38.810280 Y64.263133

G01 Z-1.000000 F8000.0(Penetrate)
G01 X38.171214 Y62.661914 Z-1.000000 F8000.000000
G00 Z1.000000

(End cutting path id: path760)


(Start cutting path id: path754)
(Change tool to Default tool)

G00 Z1.000000
G00 X38.810280 Y64.263133

G01 Z-1.000000 F8000.0(Penetrate)
G02 X39.523022 Y64.509183 Z-1.000000 R32821.785966 F8000.000000
G03 X40.235748 Y64.755276 Z-1.000000 I-1694.002357 J4915.060724
G00 Z1.000000

(End cutting path id: path754)


(Start cutting path id: path752)
(Change tool to Default tool)

G00 Z1.000000
G00 X38.076800 Y66.332505

G01 Z-1.000000 F8000.0(Penetrate)
G03 X38.443574 Y65.297830 Z-1.000000 I30887.236898 J10965.802218 F8000.000000
G02 X38.810280 Y64.263133 Z-1.000000 I-6391.571319 J-2266.562956
G00 Z1.000000

(End cutting path id: path752)


(Start cutting path id: path778)
(Change tool to Default tool)

G00 Z1.000000
G00 X36.568039 Y63.581234

G01 Z-1.000000 F8000.0(Penetrate)
G03 X36.716735 Y64.472341 Z-1.000000 I-39640.925390 J6577.680015 F8000.000000
G03 X36.865384 Y65.363455 Z-1.000000 I-11174.149494 J1867.438331
G00 Z1.000000

(End cutting path id: path778)


(Start cutting path id: path294)
(Change tool to Default tool)

G00 Z1.000000
G00 X36.568039 Y63.581234

G01 Z-1.000000 F8000.0(Penetrate)
G02 X36.540088 Y62.640909 Z-1.000000 I-12817.861435 J383.544203 F8000.000000
G02 X36.512029 Y61.700586 Z-1.000000 I-5967.290118 J176.941369
G00 Z1.000000

(End cutting path id: path294)


(Start cutting path id: path384)
(Change tool to Default tool)

G00 Z1.000000
G00 X32.630270 Y59.857620

G01 Z-1.000000 F8000.0(Penetrate)
G01 X30.397398 Y60.032856 Z-1.000000 F8000.000000
G00 Z1.000000

(End cutting path id: path384)


(Start cutting path id: path13898)
(Change tool to Default tool)

G00 Z1.000000
G00 X32.321907 Y57.103775

G01 Z-1.000000 F8000.0(Penetrate)
G01 X32.630270 Y59.857620 Z-1.000000 F8000.000000
G00 Z1.000000

(End cutting path id: path13898)


(Start cutting path id: path13900)
(Change tool to Default tool)

G00 Z1.000000
G00 X30.397398 Y60.032856

G01 Z-1.000000 F8000.0(Penetrate)
G01 X32.321907 Y57.103775 Z-1.000000 F8000.000000
G00 Z1.000000

(End cutting path id: path13900)


(Start cutting path id: path13902)
(Change tool to Default tool)

G00 Z1.000000
G00 X30.562132 Y58.284921

G01 Z-1.000000 F8000.0(Penetrate)
G03 X30.479789 Y59.158891 Z-1.000000 R51190.071196 F8000.000000
G03 X30.397398 Y60.032856 Z-1.000000 I-9468.150897 J-886.477072
G00 Z1.000000

(End cutting path id: path13902)


(Start cutting path id: path844)
(Change tool to Default tool)

G00 Z1.000000
G00 X30.562132 Y58.284921

G01 Z-1.000000 F8000.0(Penetrate)
G01 X32.321907 Y57.103775 Z-1.000000 F8000.000000
G00 Z1.000000

(End cutting path id: path844)


(Start cutting path id: path106)
(Change tool to Default tool)

G00 Z1.000000
G00 X34.677913 Y61.110457

G01 Z-1.000000 F8000.0(Penetrate)
G01 X32.630270 Y59.857620 Z-1.000000 F8000.000000
G00 Z1.000000

(End cutting path id: path106)


(Start cutting path id: path13890)
(Change tool to Default tool)

G00 Z1.000000
G00 X36.512029 Y61.700586

G01 Z-1.000000 F8000.0(Penetrate)
G02 X35.594297 Y61.406622 Z-1.000000 I-59.764942 J185.002121 F8000.000000
G03 X34.677913 Y61.110457 Z-1.000000 I28.677716 J-90.299411
G00 Z1.000000

(End cutting path id: path13890)


(Start cutting path id: path13892)
(Change tool to Default tool)

G00 Z1.000000
G00 X33.771261 Y63.194315

G01 Z-1.000000 F8000.0(Penetrate)
G01 X36.512029 Y61.700586 Z-1.000000 F8000.000000
G00 Z1.000000
